Samriddhi-dubey06/Mujoco_bimanual_impedance_admittance_control/csv/joint_velocity_log_with_grav and ext force downward.csv
time,joint_1,joint_2,joint_3,joint_4,joint_5,joint_6,joint_7,joint_8,joint_9,joint_10,joint_11,joint_12
7.152557373046875e-07,0.0,0.0,0.0,0.0,0.0,0.0,0.0,0.0,0.0,0.0,0.0,0.0
0.018207788467407227,0.0,0.0,0.0,0.0,0.0,0.0,0.0021784806922308083,5.9773703128596e-05,-0.0002652551826410808,-0.0009863177298786757,-0.00031523466261114744,6.435869224715926e-06
0.05131864547729492,0.014287113661873957,0.03762539050498816,0.0657407407018608,0.0472948781494325,-0.0001648623956630777,-0.05352827787960222,0.015869252048696447,-0.007480485332937985,-0.06341724991960773,-0.052644522201413704,0.009855626467465317,-0.023060267902431642
0.08324456214904785,0.026935986231209255,0.06499937830179592,0.11150554173908314,0.045763134832129564,0.0018510644033231881,-0.03966489383391916,0.006663831213734589,-0.022743660589088756,-0.0981374074671974,-0.033272339433537926,-0.012435282533792448,-0.03504669634385329
0.11663413047790527,0.029716564824091234,0.06544840628590753,0.09667722423441424,-0.24604295255518427,0.20903368299120384,0.12374279276647604,0.04100859732344737,-0.045539840119120836,-0.09307622908769872,0.26826839981226314,-0.2813396161889695,0.07740158783229897
0.14860892295837402,0.022746087395030683,0.03227874442604825,0.007637260548586711,0.09971673246682866,-0.026561002768987096,0.05847995873538514,0.06374966618446168,-0.033555701115558056,0.014936677083717945,-0.15377782874238527,-0.02681816124681896,0.03935069578546233
0.184173583984375,-0.08540326445707709,0.10531085229727165,0.16642032338796875,0.012007312924284044,-0.2685384745547055,-0.05471847890936471,0.08679938270616326,-0.03702552571573383,0.045949056946171005,-0.09347884806368581,0.069124349964395,-0.0008103235400998832
0.21836233139038086,-0.1732935497178938,0.17324222704974712,0.11886176188426452,-0.7177445412720888,-0.014495121437158365,-0.06087234993683655,0.18341891875559369,0.02884118568622792,-0.02676868920613,0.42372759297278384,-0.16008158093175234,-0.02467216195232326
0.2526109218597412,-0.2392023962534336,0.08410485074850137,-0.11056631989184486,-0.039162511147833756,0.0023760505730158997,-0.08634802846764436,0.228134926935321,-0.018267802180781195,-0.020516579465308292,-0.1674919290901281,-0.1107273365781617,-0.07739760341038177
0.28417325019836426,-0.1516779203004343,-0.06413459770315509,-0.34435609015619917,0.8021137786468013,-0.2550903732097408,-0.0910690176704937,0.21763043605781937,0.07408077624625431,0.32250569669206736,-0.9541138258630992,0.1713386753247318,-0.12959698062800368
0.31609582901000977,-0.11418379347761598,-0.19123917395291445,-0.47350221879459886,-1.1721430547727754,0.8908035868290148,-0.0961931605103816,0.2216280774008234,0.27536290611684533,0.5928420972948165,1.2486423561137499,-0.48871589146910854,0.06282430672149872
0.3527493476867676,-0.22161382863815982,-0.16896617985828308,-0.22487379200130433,-0.4111584847008811,0.3877058085711914,-0.21005912411218725,0.2595822861318275,0.22849658214635418,0.3927157314568998,0.5311580394082629,-0.25699596298815613,-0.065420015870233
0.3873598575592041,-0.344390770860959,-0.2653138685676286,-0.10375291358725468,0.29434653323674875,0.09392865604768147,-0.09948038885719472,0.344574157454168,0.045649843419328096,0.09125657538503323,-0.37160235948515186,-0.14396803774209024,0.017731429765421705
0.420729398727417,-0.26926455474236527,-0.2131341248115527,0.012549865108961097,0.1164336019994564,-0.19593894059421552,0.10413161247172241,0.3598025724357903,0.02845842262290172,0.10971026847321769,-0.3180172676696088,0.052626806131829934,0.05771493428880245
0.45269203186035156,-0.2955409833237125,-0.3562114859015789,-0.09962777076101778,-2.9100035123331245,1.6546781486058104,-1.08501543081443,0.3512031111618666,0.21230984963140442,0.4601775652231478,2.82328543247492,-1.395443022246559,-0.8668410258912908
0.4860365390777588,-0.3415818503062001,-0.26666286123372385,-0.0800413651323678,0.02164371079653371,-0.00889747959390741,0.3702172443324754,0.3907460264289447,0.1416417054303101,0.19133096165669083,0.019665347111035736,-0.07867415278126288,0.25668341658569693
0.520134449005127,-0.26368128972503807,-0.2324847847698042,-0.08336782778059898,0.8983745327474382,-0.5287878865393306,0.1594750518173046,0.30581366169461,0.12139496789418405,0.12662143145023813,-0.8744329329151193,0.5319231201347254,0.13166746318019099
0.5603318214416504,-0.18075539967443655,-0.12964715859428028,0.0979939140670788,-0.35460513149241835,0.2704191823941239,-0.058011707815080166,0.22008375768842686,0.050487578888782456,0.011540763300621829,0.35344332816194224,-0.3182739639596619,-0.08520142809163722
0.603203535079956,-0.15736000088472393,-0.11697018547916793,0.05756649734420551,-0.22642955018356917,0.17334758243256088,0.05512355536096916,0.1851654278089755,0.048385260928373044,0.026086662554329926,0.2417949071054661,-0.13783690803493218,0.044538771305453195
0.6532242298126221,-0.10846872501247196,-0.06498365344500405,0.10724925210860431,0.37641532243644704,-0.23927694557783807,-0.08310269001074685,0.13340657199270742,0.007699224213156226,-0.07037286764321292,-0.3710345815093935,0.22151255728707533,-0.08029035701855956
0.7109382152557373,-0.06584964604619775,-0.03969016474488442,0.09937638680882882,-0.2605751130922349,0.23438893651295972,0.13214066768159996,0.08158221946457347,0.005660241421944324,-0.027831611619643003,0.2864941067660278,-0.22640626984747456,0.12675696679424253
0.7667014598846436,-0.05728827629747024,-0.004773270393081244,0.13870979413608042,-0.295303238893795,0.1911197997133673,-0.1451952190529647,0.07023779385990174,-0.020752887119525498,-0.07567740580684676,0.2950291069083267,-0.19943723371336075,-0.15211372485061664
0.8191072940826416,-0.04058982377832118,-0.024610244444293956,0.035367160653808336,0.2823252360053797,-0.1423100961237943,0.09017118638815302,0.04517061025240563,0.005058916567217936,-0.013171606882581899,-0.26129368225005173,0.17859384910610682,0.09558894897419234
0.8708322048187256,-0.019973449895846332,-0.03281784894413466,0.0176972420984097,-0.2789070095316822,0.2292562183740255,-0.11739670001927269,0.021181203420402323,0.029750747679040214,0.03828652957456942,0.2667228382250349,-0.2016956297943292,-0.11713952824148421
0.9309241771697998,-0.02912453977203314,-0.04805172254272448,-0.0373895477778127,-0.2896886753427529,0.20723166376336621,0.036621938678083804,0.02584017078736472,0.04932193235873954,0.08597973778500229,0.2856354930845898,-0.1886806545067054,0.03124350436791501
0.9991865158081055,-0.01712885960374926,-0.014492142969514267,0.01397258861291574,0.25365979821777696,-0.17622391560440614,-0.11181238768897031,0.017643551036265918,0.01705700145137745,-0.0015038055386108473,-0.2668655833802832,0.14454866184030907,-0.10999911216163008
1.0579187870025635,-0.15653255152067844,0.07202494486136124,0.15730902278405295,-0.1101636064377653,0.21489210920316432,0.0352656408232592,0.0028223388513438814,0.0020434880498815186,-0.0053019729082221505,0.2788353258614945,-0.22968226583641493,0.06296770180890379
1.1043167114257812,-0.1402289982292456,0.07893976175504287,0.17667296975416175,-0.3225097600221253,0.1974660898280476,-0.11781190700653213,0.01686980379709216,-0.019937522956856215,-0.05189403283828534,0.2888082912049927,-0.19923963186409607,-0.13402417937363145
1.1416544914245605,-0.08918305783130469,0.06843175847374171,0.2451429087982197,0.837186659343751,-0.5762580299445517,-1.012741896575739,-0.0018110094632300781,-0.02977709196006944,-0.21830748220486523,-0.9516286141049943,0.6295108070022722,-1.0000844356219922
1.1836905479431152,-0.033439914194167315,0.03548208818307915,0.17313699654577552,-0.2152269631159015,0.250434778682716,0.19142968586000886,-0.049050171189796404,0.014741047330068431,-0.09346415862720404,0.23664011430251053,-0.21454433774557158,0.19012758606159474
1.222527265548706,-0.03597499182541761,0.0357141846723645,0.16466527772198386,-0.47909668985911147,0.3184892460969446,0.020049778823646308,-0.029609103524348084,0.0045637547184935595,-0.09093044320656772,0.49483874622441326,-0.33077078473254623,0.007164813236862577
1.261153221130371,-0.032674812941178105,-0.006320334111578167,0.02260856827066038,0.28754392875991164,-0.15738269178081032,0.20126968680502896,0.10287558684583328,-0.05777295543532034,-0.0760309217764715,-0.36960001850322277,-0.08919821267271041,0.04890950066192195
1.295907735824585,0.0012479590936923107,0.02072280216918894,0.060196595723312665,0.11028635600766049,-0.04346123877825704,-0.01545032466531468,0.11742300785307842,-0.04837440272284363,-0.03515363040523489,-0.16877383807303456,0.06980783180855349,0.06747862114167505
1.3262033462524414,0.015070576765650788,0.029280867159191315,0.09046411458469843,-0.7081166971053874,0.2601637558403413,-0.25246233301318677,0.08083546416468601,-0.041494116581321176,0.06551372008431292,0.7472847464070999,-0.21778745423509838,0.005748953332509986
1.3617448806762695,0.002163283791340993,0.0028811815971789,-0.03031415423794573,0.00908368009561511,0.12646809468562367,0.1792614085706088,0.07605237028129501,0.0043088090361536255,0.10860586364895672,0.024936466188286377,-0.08180178627506732,0.11553392810279059
1.3939363956451416,0.011357565006335156,-0.02493192425447073,-0.0764374126647668,0.23720818819049946,-0.09966825744106927,-0.060143997778700525,0.0518927602748344,0.028564782737834884,0.130310909135035,-0.24316937448775117,0.12819180968398533,-0.08652718078677904
1.4274754524230957,0.017050805579386756,0.007182960710787105,-0.005305542878607364,-0.301932400253772,0.21209660234674926,0.02629288260080563,0.034763369331855094,0.001677547979753169,0.07903494854884513,0.2974895707807153,-0.25123819273177217,0.010121953936920447
1.462925910949707,-0.0015840980120663643,0.018436908700303095,0.036149446833762734,-0.28009714609853453,0.17569765510146979,-0.19640368070992686,0.044147581729162284,-0.01221844787035991,0.01830543089474794,0.25702509832818765,-0.17725501758764198,-0.20714191564851442
1.4913456439971924,-0.00086993721381662,0.03852090232160497,0.06544371181082767,0.24891802040467137,-0.1566312497934127,-0.04620629148080066,0.03463816910695703,-0.03466531033668396,-0.0525691608711011,-0.24649098553638948,0.13929412704776836,-0.046645188055944725
1.5269691944122314,-0.16322259008894263,0.15740943980251937,-0.013892779175321862,-0.26095371230736386,-0.10911382466547617,-0.025469688403684302,0.019317977960455604,-0.027000309804105983,-0.012849313785211668,0.2900395281630084,-0.22520428117601918,0.13032869895520174
1.5627360343933105,-0.15704461606295153,0.12292837140123189,-0.08672790833086068,-0.3089114282476927,0.2956451299857641,0.0572830895031267,0.030600717491414076,0.004997954924121591,0.05220638910193336,0.2901494419268648,-0.17951948273845475,0.007401459608814692
1.5980441570281982,-0.07886327032565925,0.03887482117752629,-0.1393921962786739,1.7040240974493024,-1.0555648392021342,-0.7958542747215218,-0.02173457748006878,0.06438508695913629,0.01570323298158855,-1.7962952588128656,1.196321996744437,-0.7829997952220933
1.6340243816375732,0.021776038982111556,0.039523413088319206,-0.049684998667600164,-0.31434122867963366,0.3504706611555568,0.12131528363989852,-0.10662163002723885,0.08818666651302316,0.08877729339841922,0.30296531087112033,-0.34511169918043927,0.1096780601131715
1.6677534580230713,0.011971442942202006,0.06123237664892189,0.047486044072998446,-0.724894667132183,0.44472554292666266,-0.03455572726440806,-0.07638305548955683,0.047623892006260535,0.020005312522973204,0.7138576444603795,-0.48034807901550214,-0.05430658080266196
1.702017068862915,0.00439442642557445,0.026593910814179215,-0.04117280500005335,0.3167694361629867,-0.20042161979020445,0.19947531877709626,-0.05652715594932388,0.05834011972172493,0.03798371328864185,-0.29725826282600454,0.21951052977780638,0.20664655030867626
1.7371037006378174,0.03390229682210321,0.056724849849997386,0.03409943549010454,0.08037374653413937,-0.020779415243574267,-0.008079698847717337,-0.06893492441215797,0.023945416845560348,-0.02029646245771332,-0.07884533078948694,-0.014070904500729703,-0.009303474767039605
1.7691457271575928,0.02562393640512907,0.028862565422949366,-0.005885079181524026,-0.4481722282317369,0.3404122565046558,0.0168383438204324,-0.0537146554895749,0.04518525327375651,0.0500580054736691,0.44717640936824643,-0.3066880527688488,0.008396183021037094
1.8025388717651367,0.017062926542616947,0.0331275318597581,0.022157096257548886,0.16328174030520598,-0.12446947590118135,-0.17257444709181236,0.050324978428414914,0.049914594287786884,0.03870708889841975,-0.350988482908277,0.04452896175822757,-0.12394712765473412
1.8356974124908447,0.030645614871019453,0.005622386152426884,-0.035242365663808985,0.16518345890114755,-0.046807758976044056,0.0770163792203761,0.0192137729613946,0.06317280749238083,0.0955087109930291,-0.12957088331008096,0.08369029727462485,0.0668827542663882
1.8684465885162354,0.03954024286452413,0.016847134081895324,-0.014051627211596265,-0.6933480111693691,0.6134409284616625,0.1540744418449161,0.003071591350623088,0.07440978713762932,0.14016961659147828,0.7255144959758328,-0.608302887687618,0.1361542292487553
1.9022746086120605,0.009493447092277247,0.006285451871225204,-0.050822525106829435,0.12589496556625157,-0.12836267393670686,0.09292447789292298,0.0891123232894295,0.0012617535113742112,0.1354299336256316,-0.2574352227523613,-0.09344529098455312,0.01656532460693512
1.9371180534362793,0.026125169990134194,0.026862640057272857,0.008810487603167882,0.26497455891540295,-0.17111224121028992,-0.1948247726463302,0.05495637609728187,-0.0309248640992857,0.06228794098527979,-0.26164268268946483,0.2057237130378427,-0.16865330511960058
1.9709835052490234,0.03357786145156562,0.06720954154720349,0.11238249250739853,-0.6156849787176184,0.4025994536177745,-0.24040712953316618,0.0342531798741893,-0.05609541149593957,0.018227332479073093,0.6274503348585754,-0.3909652123403376,-0.17673783677044044
2.0060110092163086,-0.006792978864827305,0.03877116226326291,0.027304809677564296,-0.20807682706879854,0.14971501856136887,0.15791410226049923,0.05640836596152013,-0.04004751211539614,0.038838561291458795,0.2388269048693264,-0.11580726923943296,0.13761810333806482
2.0418169498443604,-0.008592672301469912,0.007633061750593997,-0.049611404612239215,0.31633275111561904,-0.1697187912186684,0.06067718929542203,0.044841405739237374,-0.013325528840265027,0.06505879395299606,-0.3042030076882876,0.1974986804992871,0.060968817606434675
2.077493190765381,-0.004239279669542703,-0.008089904053853039,-0.06478741264171282,-0.30017909725527797,0.24791390964998433,0.010446780754033408,0.029436927563949312,0.011938445533874811,0.11084367802051451,0.29297232942800217,-0.2331864333149541,0.002065757390040883
2.112529754638672,-0.020015940517133055,0.02447145286229616,0.018870971011852297,-0.28641253782744186,0.15946388894922497,-0.12661802479453663,0.04179856360023258,-0.02185767538887213,0.018170523152433546,0.2674034537006436,-0.19890097476595905,-0.13347130617266015
2.1472105979919434,-0.01647838450433461,0.04180536395647586,0.05147219671554062,0.26784718053423834,-0.17288945293868035,-0.09619263762544146,0.03436536973748855,-0.040034720178949504,-0.05035355132480397,-0.27351884519913444,0.15965691171351362,-0.0932375073299079
2.178370237350464,-0.009509316227560755,0.030001663681766308,0.055022023100917444,-0.2810880908746199,0.23165733835337404,-0.11579353199014746,0.020974814950549876,-0.01662879871531943,-0.016065867933255033,0.27266140048148885,-0.20314534756190486,-0.11603616876292613
2.2116849422454834,-0.028736308420145924,-0.0005918825340136061,-0.011959684352921843,-0.28601337347785855,0.21425434279404365,0.07707417541305321,0.03192563839869236,0.014578415868459416,0.048119297056907824,0.29312601147950473,-0.18583503062102558,0.07169889202386004
2.247324228286743,-0.026591879448288436,-0.020675361004069012,-0.07020761344723389,0.26153886009887256,-0.14733291111086666,0.07891767534856468,0.02595958889911156,0.033172184506738825,0.07425533880812146,-0.2550910146663526,0.15761444348770842,0.08197619909640787
2.278834819793701,-0.01384559630663461,0.007390536711702325,-0.008513869188397076,-0.2755888923909932,0.2021470273622053,0.027898546610150843,0.013929109314320015,0.015695776939811494,0.05087007501589508,0.2716345019197068,-0.2340772697432072,0.02555847640967559
2.314276695251465,-0.025874153478948815,0.03404222790243605,0.056334492673540064,-0.2942095260999661,0.18018135844068484,-0.14540959121448538,0.028235665188967557,-0.012016133622466812,-0.016309853666075194,0.27997022714566466,-0.20083608357179272,-0.15270172717777517
2.348064661026001,-0.07473669859827935,0.0034899950499734066,0.04023542352542428,0.2511630900713613,-0.11546674020595771,-0.114233264466999,0.024246260926392014,-0.028608380182993054,-0.07050116490785677,-0.2585683792130068,0.15506430103298935,-0.09095583752492992
2.381957769393921,-0.0581394947390019,-0.009437952604578635,0.03512556239601844,-0.27388553465926024,0.2193533188921149,-0.07971983253161072,0.01305297962684959,0.0013281187675751698,-0.01130055687943856,0.2676635501427409,-0.1947957902133241,-0.08470648670172037
2.4145147800445557,-0.08903556831257727,-0.09792916237461649,-0.09624059942147098,-0.8004699976889211,0.5557652296281761,-0.19094699548598915,0.0449972325374092,0.0989752065299093,0.15559748635121967,0.7659436688551267,-0.45093068562090743,-0.19601534057979572
2.445570468902588,-0.09288545017984381,-0.059161810417092106,-0.03700287296279344,0.3494123559679798,-0.28312707316680297,-0.01606965521946463,0.0617463808152941,0.05415958311069515,0.02728288070681098,-0.35832254630779636,0.2223632545310028,-0.016091022096522578
2.4805002212524414,-0.04785915144145432,-0.00995884760373042,0.05019766077548341,0.2561347014933995,-0.13222750744324546,-0.01639905044515891,0.027992884373333443,0.019013857479969566,-0.04033380028751367,-0.2566881881570856,0.0950470410375282,-0.01511133643083589
2.5129306316375732,-0.03187785424300216,0.022458720231073197,0.1226118652947275,-0.4176206223842213,0.3056566766619494,-0.0900768688319193,0.01913069808163688,-0.0022415321851075067,-0.06349526706792634,0.41550695406141447,-0.31372650266053076,-0.10073413364235576
2.5420761108398438,-0.030509391573742998,0.013184002983334166,0.05108734236434795,0.19399550489611522,-0.10557879941862014,0.18582003823018872,0.01819739201126961,0.0019174028458625817,-0.02833771914283202,-0.16165585222104717,0.11876422512991941,0.190877345618609
2.578742504119873,-0.004180132451032312,-0.011151596023989704,-0.015179761722035001,0.18807909586922192,-0.058281778122340255,0.023337246926164457,-0.006504319371276261,0.032645516151362824,0.04289892949329882,-0.17949943582775926,0.09326503100359601,0.02707524882503423
2.6129562854766846,0.0012132979796848345,-0.021942721315672202,-0.03595562449011269,-0.39561708265107853,0.3027094966676028,0.016563717620232395,-0.010670670797741845,0.05040505801305291,0.09863396480190292,0.38912050078490823,-0.28907245986826713,0.007945471712485712
2.6492748260498047,-0.000519284161762478,-0.021709072290922636,-0.026259182450891205,0.1373142146605233,-0.10540086965125361,-0.19440649970684457,-0.0036425175784857294,0.04234144750429633,0.05233086340233856,-0.1635429039612628,0.1066576620424754,-0.18774293201475603
2.6834332942962646,0.02244009582673245,0.012342279757459398,0.041915135151833774,0.16229057435505073,-0.08596169837184335,-0.06641309148938077,-0.021647695337113172,0.012456696802106409,-0.017212901713531126,-0.17231029022494948,0.05638144633562346,-0.06678921304218384
2.717989921569824,0.023432687907122596,0.03406090761783058,0.1007302708140691,-0.3934494360524991,0.2855592300047379,-0.11252755293787085,-0.020488899629460988,-0.003720229784576784,-0.04405039287917503,0.38613410582937546,-0.29116485843738166,-0.12194585456224928
2.750241994857788,0.013882638067880565,0.03143948594616668,0.055497484911800087,0.14581748451525062,-0.081798582336577,0.14350409949362225,-0.013287849428207757,-0.008590279435245794,-0.03552509958566067,-0.11897402060364326,0.08274970260021425,0.14860823700225873
2.7835142612457275,0.02673936712187657,0.003594112378986429,-0.015247772102288205,0.16928499589243337,-0.04815398323782481,0.04223647081246257,-0.028613563659173523,0.02253361950089717,0.03480138295092317,-0.158945338104092,0.08075010030423703,0.045238931967017754
2.8154659271240234,0.02243256901525975,-0.011060850582750822,-0.039745130265516834,-0.3883570601826609,0.2982286913793878,0.02334844282543126,-0.025905654930817767,0.04254997564076351,0.09234743114022492,0.38351120067728334,-0.28312253535301124,0.014944156191716053
2.846323251724243,0.013981809864511472,-0.010779105603173118,-0.023967995976539692,0.13716248680380427,-0.10623844728670118,-0.20753361514940397,-0.013919956897733163,0.03380021742681937,0.041356984128426776,-0.1638178960540027,0.10558077834079155,-0.2015855922045441
2.881697177886963,0.03131135129304126,0.020476373718093105,0.042157457044304555,0.160028207088177,-0.0837007285179835,-0.0622808689294673,-0.028115498912877946,0.0064886754115909655,-0.02370041578730036,-0.1691543801439521,0.05531558391793447,-0.06252776525241827
2.9178881645202637,0.028185163612690863,0.04008780842718491,0.09953362851486279,-0.39250761079319696,0.2851747954439669,-0.10895137850020455,-0.024088296876109742,-0.007850387525376035,-0.047636855492091075,0.3859632901135722,-0.2905500054793914,-0.11838692554992218
2.9503116607666016,0.015983445590837295,0.03673969580004947,0.05604432625117375,0.14610371450208948,-0.08265885833084008,0.13887718462770993,-0.014929256169899876,-0.012118405715847227,-0.039188766149073406,-0.11954278374727567,0.08289509310653476,0.14418005594175815
2.990995168685913,0.02687643033867656,0.007414474342098805,-0.01579909350995721,0.16988249734858832,-0.047788566466869124,0.044126476969525624,-0.028941042459761673,0.020335550771864906,0.03341747776829378,-0.15835963671109513,0.08059867950006946,0.04713922116605776
3.0224034786224365,0.021401449930945424,-0.008433536337682599,-0.04083340277255455,-0.3886015216887657,0.2982820899471616,0.02393397431494015,-0.02535632670629926,0.04133534041587064,0.09239997614795692,0.3836201746906056,-0.28301341319488027,0.015440779710287449
3.0564887523651123,0.01227921925903087,-0.009160233857859017,-0.025714399932197998,0.13706766567328033,-0.10626180682594094,-0.206247730996402,-0.012898579351014237,0.03340791278628247,0.04269089940288323,-0.1638934972771886,0.10568382019472816,-0.20022058818015465
3.090336561203003,0.029335528730852826,0.021615178221229263,0.04070440193218697,0.15973624389214014,-0.08383061688795831,-0.06240979803846036,-0.026855661530020346,0.0063729930802404605,-0.02227965152705022,-0.16921670237063682,0.05522430311449804,-0.0626293048761129
3.1232216358184814,0.02618405885669665,0.040907296583225734,0.09839770464917158,-0.39271818129467995,0.2851139671666959,-0.10884975314164372,-0.02277053279006245,-0.007853934174501797,-0.04638420828910852,0.3859193066146869,-0.29064944311525426,-0.11839842918481239
3.1597394943237305,0.014113467636304111,0.037358501330639886,0.055331686287660165,0.1458860336128145,-0.08271702897494337,0.1385792396071185,-0.013660306830384451,-0.012105007278934283,-0.03825142527721043,-0.11955868319585927,0.08283283016043336,0.14393224314201633
3.1920924186706543,0.025216503125795226,0.00786921785801709,-0.016253470280013158,0.16977195034484924,-0.04783507120642743,0.04420602145783259,-0.02779064325263087,0.020354189939223572,0.034113064746882846,-0.15834230807965677,0.08053870345170615,0.0472477774191057
3.227349042892456,0.019993477856834488,-0.00811066590757889,-0.041113880772092756,-0.38865722876187725,0.29828227138489843,0.024003727586717184,-0.02435868933260996,0.041340528648992986,0.09285882907906015,0.3836387889919459,-0.28304182009837237,0.015410687186172473
3.2612178325653076,0.011122457291871087,-0.008911352355237576,-0.025782383592316976,0.13702901784710486,-0.10629231013240176,-0.20638760109324625,-0.012066638071829191,0.03338139529973306,0.04292859090262696,-0.16387298719675936,0.1056657874341752,-0.2003227933366443
3.2938232421875,0.0284110840809328,0.021781710827035276,0.0407201157138693,0.15968562216022816,-0.0838182552090988,-0.06243693565585326,-0.026184486773480623,0.006348235220436104,-0.022150811004945273,-0.16921447131685946,0.05524458709382723,-0.06261757893062964
3.327702522277832,0.02546973958904831,0.041000013081607986,0.09842903735894987,-0.3927461357384634,0.28514631020163556,-0.10881687903701506,-0.0222484610490881,-0.007875469950379943,-0.0463392222999872,0.3859379800731771,-0.2906407434934368,-0.11846059055224967
3.361466884613037,0.013577434071082766,0.03738174586562962,0.055337179429855304,0.1458618328093486,-0.08269894395384192,0.13869252645297364,-0.01326424650133594,-0.012101251878097683,-0.038186096974970316,-0.1195525889744053,0.08285445860150481,0.14408616913921635
3.397252321243286,0.024831682880338483,0.007869477203974753,-0.01621568082434824,0.1697335958378281,-0.04784916034951001,0.044180628087500506,0.026471760937251676,0.057327085981036044,0.022825329369104863,-0.18518250828487737,0.14143480388112603,0.10114417605754758
3.434314250946045,0.01973168079121334,-0.008127709396873514,-0.04108562880746067,-0.3886428276568633,0.2982941980563351,0.024070322208282518,0.02001539310032768,0.07511487356094833,0.0812745378949346,0.3938905012954462,-0.2982977371560277,-0.0005416989959344531
3.4716594219207764,0.01601421641981509,-0.010826937767427904,-0.06736881903179726,-0.03327388912227319,0.046416860326949805,0.189455203636209,0.015040168685500333,0.07921012474958586,0.10838979231299396,0.0475584723318187,-0.06529754597832488,0.21680489292125948
3.50957989692688,0.02534945958813,0.018292731313438265,0.00498062528856634,0.19139926300078036,-0.12734662056028498,-0.18736616273652917,0.0044170324033929,0.040798688668373745,0.018184008237064397,-0.21118619277583567,0.09783923070596923,-0.1981400342985392
3.5457475185394287,0.02482964788282184,0.04422256588651867,0.07771308987484118,-0.3436647973437963,0.24535523903090087,-0.13510522588141877,0.00020634685204082726,0.013886542630280607,-0.027950528342108545,0.330729720388891,-0.2586932297094571,-0.14856139489320655
3.5823113918304443,0.0010257562399896558,0.055581610746205726,0.10570762116384383,-0.2758932796083384,0.17736134747704402,-0.09953288240641953,0.018595847771500754,-0.0074773785357232225,-0.07064905851776905,0.27493930018607043,-0.1808227946653767,-0.10735200490111681
3.620285749435425,-0.005251721681940375,0.01969108949022473,0.005754847361466003,0.2575503064505944,-0.12554264890136435,0.10705569389265032,0.01524781079562788,0.0196380158758801,-0.006360934608741764,-0.23622212757647848,0.1629721572323194,0.11216675835736935
3.6550004482269287,-0.0023966717766748346,0.014154750274700902,-0.012626578590644033,-0.2746249365350625,0.2270123851409796,0.12163150394125732,0.006718747503198105,0.028808023218854145,0.045685329122328956,0.2877481959513129,-0.22667484956526107,0.11607930637429958
3.689650297164917,-0.02262970584561487,-0.011646470961635815,-0.06210817150569478,-0.28769949930767513,0.2026410026081621,-0.02274069263453668,0.02272196658401055,0.048464751270010126,0.09190539717426488,0.27847378954713076,-0.17895329624915815,-0.02699448084355094
3.7277896404266357,-0.018168784228111603,0.013336141685415824,-0.0053865849039089475,0.24867806741008447,-0.175128709617846,-0.14130811269425764,0.021328586650450423,0.016979147485726993,0.003648690504935853,-0.2669556973331777,0.1454876582098619,-0.1385235561432976
3.7670578956604004,-0.010083519451706418,0.012361098803204896,0.022709889613107784,-0.2740876800726437,0.21527245713134824,-0.1464441432119083,0.012169217117145002,0.024173320693780875,0.012612691904768217,0.25472853174512267,-0.1987323492379632,-0.14755748261348398
3.8000690937042236,-0.024244731785423426,0.03494504533992142,0.0762917731825841,-0.29418991328554456,0.18693039846506607,-0.0690009094605653,0.02703362140596527,-0.0021519222647247115,-0.042013125450592534,0.2906261567832751,-0.20556800439274792,-0.07714829155541114
3.8357021808624268,-0.024303664562446873,0.006428153838851473,-0.00985330836896356,0.264527983079589,-0.13431403054265065,0.11936691509970108,0.022468602513495917,0.02104124140140297,0.011461482480968128,-0.24568910401065847,0.1636266275788874,0.12451277498667726
3.905785322189331,-0.005855021193155594,0.02587345432893185,0.025725262664780896,-0.07710036713657598,0.08426538249587948,0.044566729494233126,0.004989090707006927,0.007503514659548497,0.004332938844594665,0.0847436054041199,-0.10555485688201444,0.044893493272332344
3.938607931137085,-0.01525207672036787,-0.00011410369538297771,-0.025286010868127852,-0.3242774608156297,0.24617757226355583,0.0023622313372550635,0.011423714394077342,0.033095837979874254,0.06955872466570283,0.32074906510337275,-0.21486551986796265,-0.0038970457776852166
3.963056802749634,-0.012190627546642095,0.01986666320615911,0.0197777286952711,0.20214889239474632,-0.14288974740839502,-0.1409817591746918,0.012527280203839478,0.006545507241627099,-0.008311974663677515,-0.21643072966985932,0.1198548688656062,-0.13926213961843217
4.004733562469482,0.007066540029313111,-0.007357568507024036,-0.03858729569387954,0.14596990552213931,-0.03393876050760075,0.03490076816535892,-0.009954575141105555,0.037167831945913596,0.05858410282405081,-0.1449818614905492,0.06860276526827266,0.03920927385004025
4.045496702194214,0.010496377943977184,0.022636617547130436,0.048784153028098125,-0.38723025926806565,0.263894446008738,-0.1272762572081334,-0.009640851127788234,0.01121678132669927,0.004470470126579494,0.37153296466775715,-0.29100315740573623,-0.13733683996497215
4.08548378944397,0.0032993469426187477,0.01112957755332127,-0.01000410779556895,0.16286544573543138,-0.09014134014959113,0.16185355685498704,-0.005504019663714293,0.014622769559919533,0.02709909046762955,-0.14383805302735425,0.09622032402539182,0.1657227394456975
4.123427629470825,0.0238687874310564,0.03836289353536601,0.05285924479095284,0.15446995054386578,-0.07556179443702173,-0.12031717069404108,-0.02152774314444606,-0.009999614952517064,-0.032658495139903446,-0.1619133172006784,0.055737752372736926,-0.11957885447221966
4.158411026000977,0.019284024122176367,0.015404385265843028,0.0070632925698287385,-0.38228631178870975,0.3051629933215945,0.05028640516511379,-0.021227920257968606,0.01774704673161097,0.04550838453407796,0.38618019939909287,-0.27382222651617993,0.04247855179714913
4.191399812698364,0.007229016985717969,0.005440463889128893,0.002785945998059697,0.03650969885344307,-0.03167367759289835,-0.174498396127346,-0.007492280528087269,0.01968833654996155,0.02082547403791621,-0.05395395752328064,0.04221681598144017,-0.16896778023047762
4.229095458984375,0.01716953757846268,-0.014582967427947685,-0.05067004658416778,0.1860766647512711,-0.07229303552915818,0.09132597952709218,-0.020097365190140166,0.04164181656945655,0.0661434538740173,-0.18075411898634922,0.08971025651448186,0.09404516103982372
4.260499477386475,0.01872992293297413,0.013190055145820145,0.03580135283896134,-0.373262333872644,0.2583550633233202,-0.15619874089057634,-0.017493708016341706,0.019115126332921388,0.01399842903380765,0.35293911575692716,-0.2816181898428378,-0.16619973163377735
4.294460773468018,-0.006824689136707415,-0.016722596617178252,-0.022287559284300068,-0.25731177906140773,0.1807302728847478,-0.015793695412443243,0.004744218538353148,0.04399622766678989,0.05927536675402857,0.25121476569870105,-0.14535398354080378,-0.01516836430609303
4.330061912536621,-0.06458692479766356,-0.04234687677247259,0.05440163361370838,0.33244412639154725,-0.018834025643288343,-0.03699134212261011,0.0063207593112276994,0.011971318737784176,-0.025553941666682817,-0.243699041008193,0.12933551808594865,-0.0675490620598872
4.365595102310181,-0.04930001176254982,-0.0498019276345167,0.037053208297338366,-0.29262932437895045,0.21050113765278552,0.10702859585471951,0.00030107245995494164,0.02896276342308098,0.037050944535470254,0.2904611200864406,-0.2245267552655493,0.11004661666717794
4.424452066421509,-0.08540735809752867,-0.07993721352083788,0.03452232242619806,-0.9760351507248803,0.6069222336669765,-0.44821171894231576,0.04610153731444141,0.06489533965459227,0.0635602334852091,0.906404408902777,-0.5631910229873962,-0.4543596752588268
4.457303524017334,-0.10060668461261035,-0.04137626039817855,0.05735330727949603,0.3707964642404551,-0.30575826324454947,0.05504818203475664,0.0709692223547407,0.01659691761311105,-0.055174149780047005,-0.3675132474168761,0.24956599016255798,0.06139668623819361
4.492443799972534,-0.05691232783810562,-0.0011214175384635927,0.1086241374474646,0.29101923876545754,-0.14265563659015879,-0.010598098252470503,0.037021373879493315,-0.008212895336725253,-0.0961310138819433,-0.2819918905161388,0.12012982081225629,-0.007889812665562587
4.529989004135132,-0.04470529373519212,-0.0202377935339619,0.05128499014801,-0.4201282984033359,0.3435018127607041,0.05945760979831091,0.025808003781463393,0.024359388632622738,0.008779576415245946,0.42806280450242673,-0.30068094927414146,0.05037385428131433
4.565450191497803,-0.040630149816731305,-0.017691873587755938,0.008158436948581545,0.19452795576715887,-0.1235705919082492,0.119422110430479,0.025403659454706573,0.01849153389531114,0.014611678418079234,-0.17508478551742013,0.11622151002215486,0.12553080831088648
4.597862720489502,-0.011534573370612537,-0.0336225126504012,-0.04494332139962297,0.19609257171679295,-0.07050850540877335,0.014702988127933178,-0.0007469302114927641,0.042991503866448885,0.07123788868836817,-0.1948022109441786,0.09593672151763946,0.01871703112878155
4.632870435714722,-0.0003074970018280918,0.00019167242923152916,0.042440023569936994,-0.40678703912142256,0.279366774997998,-0.1799942526651528,-0.004606010361093748,0.018483790546287945,0.020335253622066292,0.3826631682942657,-0.302332107507187,-0.191285547888426
4.667166471481323,-0.0029172389500570946,-0.006825091387156919,0.02361752504489916,0.14397658908240274,-0.09521173300155034,-0.137043278904178,0.0003471662495012429,0.019952194055552517,0.0022502482290389855,-0.15672686909056577,0.11303206857407117,-0.12939459732740416
4.7020652294158936,0.01993807830643701,0.021932868327502537,0.07438789813746821,0.16411867711983946,-0.07914716936683858,-0.04174540697484165,-0.018624744099440836,-0.0031446811604531853,-0.04922779093725423,-0.16397871508034426,0.05724769913468586,-0.04190697256272073
4.733830690383911,0.01764841716460852,0.003098723023680812,0.024278302602585296,-0.38484456956427465,0.3120146853762902,0.09425355763440628,-0.019856443030532977,0.022850261828006046,0.03241830013204141,0.3970468887019355,-0.2821490022251206,0.0852748815597447
4.768161058425903,0.010529380379724512,0.008178688162636841,0.0027420838176022873,0.13937798889711522,-0.09143361781177606,0.08939680794877211,-0.012034569916380345,0.011083659664883172,0.018746252901423833,-0.1254917115429145,0.07762818687660672,0.09250511419942949
4.8047099113464355,0.02523954501123208,-0.010771313839681738,-0.048562292194750126,0.16786979402639138,-0.05668884595887974,0.024017866164315935,-0.02776340123532086,0.03426328237723998,0.06929909204852498,-0.1680493294023953,0.07894024241797748,0.027636755791411158
4.842578649520874,0.02566883087636501,0.018449802064880085,0.03756902390722859,-0.39735528813677357,0.27244021025207943,-0.1782835093713171,-0.02384356741595256,0.01101400721706167,0.016504198156052356,0.37386374714553333,-0.29428329300072276,-0.18900079565791228
4.878106594085693,0.007704462271311104,7.611946261521646e-05,0.0037164055847801677,-0.05483036555235238,0.039577416348892586,-0.09542914805331408,-0.007194549250812754,0.02354574475330186,0.02524473100197891,0.04377857279668401,-0.013787714518252447,-0.0893370831945451
4.918005466461182,0.016757493250034654,0.026433033903045546,0.05345059606607466,0.19908323719472865,-0.11624119831659407,-0.05510396106935105,-0.013408633358233758,-0.0021822226237689993,-0.04052274090069127,-0.1997136899185941,0.09059628131353992,-0.05489439518978989
4.956416606903076,0.013754990326266094,0.00904191930101051,0.010910428517770604,-0.3339526788939363,0.27886040966155806,0.09985735200469653,-0.014563419963628397,0.022056071116274174,0.03455377037727249,0.3447653874404938,-0.2531425043290145,0.0917390281710097
4.9951441287994385,-0.005931224039220284,0.039246211089678545,0.07225978859351226,-0.26787420000541773,0.15384356960805298,-0.07075247770656912,0.00828814724033793,-0.01253645411544227,-0.0359441806192161,0.26520335598558376,-0.18746099345877687,-0.0763152391862624
5.036339282989502,-0.009250471079778055,0.009669306416968206,-0.016116507018492418,0.2571767683843704,-0.1292346085401553,0.07538623898722271,0.09605487516616502,-0.05406973615056383,0.010853340942988336,-0.37857078341231754,-0.0745315389872999,-0.03191580386346204
5.074119329452515,-0.002877001945001731,0.018024202413462326,0.03844815575787778,-0.2889776578588016,0.21467800975002252,-0.22824713681969974,0.07330408088025646,-0.05293075972925177,0.021370901639634975,0.28567572201431024,-0.15541928028254448,-0.1993683017809218
5.113053560256958,-0.012336976044687045,0.027455044955689886,0.05565890276597514,-0.5167458338051406,0.2357077731122864,-0.12207153133975965,0.06754843648895678,-0.047470549214660096,0.06174053805707653,0.5440079675981131,-0.20634994733649464,0.030725685137584474
5.149906158447266,-0.025510446796567315,-0.01154973387234949,-0.05097833908729811,0.29543791290764454,-0.1465958265368667,0.03501103265042316,0.06793306530708425,-0.007757001313780862,0.08697168633384557,-0.2852446927941562,0.19645501324087639,0.006388946921273238
5.186103820800781,0.0010428254668190112,0.020666450200214855,0.01143744463919208,0.16602271763634854,-0.0634644177427296,0.0360739311852119,0.0347957187939988,-0.029324146342128005,0.030091307737239226,-0.16107002756417138,0.027046509521353068,0.021136032526018325
5.225747585296631,0.004671379227478179,0.05607737936497676,0.09228902982856435,-0.3526782862162626,0.24787495452675185,-0.04852524414310463,0.025222773458090837,-0.05653574273175878,-0.024044754912576183,0.35058275349288487,-0.27824276314706636,-0.06356821287664585
5.261901378631592,0.0007860824363998156,0.0540677663029787,0.08905416116522166,0.16754029497810974,-0.10124514683135494,-0.14558952605363124,0.022635098582190125,-0.05732102361048066,-0.05963539053534576,-0.17132054461245788,0.11241344830570155,-0.14477886243064889
5.296908378601074,0.01577086566607931,0.016644116268218295,0.002858628109070227,0.16466335287251888,-0.03633959993638387,0.07841418038104414,-0.0032653023016265964,-0.012148630995332373,0.026305556188475583,-0.15112937251778347,0.07772103253377233,0.08149138172028841
5.3335793018341064,0.013296266377463777,-0.0025809824876896585,-0.029729638628139966,-0.38586374399203827,0.29961564090987314,0.055581162564414054,-0.007773611442863354,0.016025437195097896,0.0895543479848386,0.38690990841887074,-0.2854027265102357,0.04548054707952004
5.36996865272522,0.007199453006248585,0.007033396483812456,-0.030449125218523002,0.14246882232209168,-0.10380385688929161,0.0594743693644844,-0.0036703339073572167,0.001919681641462962,0.05444016153679656,-0.139372309722676,0.07755352980000302,0.0645351225021742
5.404158592224121,0.026258857477540844,0.034970004512102255,0.03481112891958932,0.15934242357514028,-0.0842834208644061,-0.13038547496788078,-0.020684424754573827,-0.02000375599641978,-0.011263874626961885,-0.17113232190026925,0.06037164836892851,-0.13013280816780687
5.438181638717651,-0.1409790301842838,0.13322972911890157,0.13117664415835403,-0.320453885562776,0.03667929330810381,-0.14265585864152122,-0.019687363668260432,-0.029820416417882366,-0.0371388173669317,0.3806721808041147,-0.28816918575226114,-0.14437196650071488
5.470866441726685,-0.12470462953770062,0.09352868359275365,0.04053906250017525,0.1126019718011198,-0.00589635824434049,-0.05846137810459083,-0.011469713741059259,-0.0032203780926494327,-0.004357078191452146,-0.1373120214355712,0.11092982487019815,-0.05178905532976456
5.504093408584595,-0.04817405535189695,0.050893292731542666,0.06990790094057396,1.1487909841171735,-0.6963954547050129,-0.8809326821327903,-0.05667777931201615,0.02395197215201973,-0.09408230473888833,-1.239446749666857,0.7943806048842466,-0.8578280908857802
5.537597894668579,0.008663849389540124,0.012630072485745249,0.02766809352365522,-0.5373968329272119,0.48718046671167103,0.2570216579255351,-0.10176561708411805,0.07620713827312335,0.05404899635566683,0.5495986468433685,-0.44592418197793027,0.24523641944692576
5.572863340377808,-0.010304558273047226,0.02682740410978297,0.07330985155412013,-0.5265432769152941,0.31134461551871573,-0.0069892197321537175,-0.0605773091571964,0.042471692382517544,-0.008322821328942367,0.5261116339056305,-0.3452347008603927,-0.01996797325795341
5.608427286148071,-0.011434882226951232,-0.007007436583680641,-0.030246339588294244,0.32281812494672035,-0.1902137784893877,0.17591547043603636,-0.045531136144305796,0.05987761608590211,0.030173406192408145,-0.30530436710003006,0.21237756544293201,0.18453804313925853
5.64355993270874,0.0012493860596243904,-0.010013434321760967,-0.0037304311768552693,-0.3455114830074143,0.2644041600768796,-0.1506919535111336,-0.04193741270404409,0.06556725201345266,0.04052381137255391,0.32471972401055715,-0.25284367270722896,-0.15451859757425224
5.682487964630127,-0.019831721123737198,-0.03177434115924729,-0.05341409181946229,-0.33651358324333536,0.2338123909380043,0.057425213126066854,-0.012239971880937811,0.07837898902999321,0.08175144505510366,0.33341039966750347,-0.21452682830032616,0.0498078194880166
5.720576286315918,-0.015376517511428307,-0.005016939738778467,-1.5217662072075644e-05,0.2632095136650978,-0.18406740785991407,-0.1057757873544706,-0.0025093788575150794,0.042325616360645295,-0.008962874128239887,-0.27531890236137707,0.15480868884311516,-0.10258000528029446
5.756255388259888,-0.005917054949395628,0.00932103333733025,0.015947011237334635,-0.26888327950280855,0.21966954931436092,0.1259245382583333,0.05374442137787496,-0.002945723272294483,-0.10247239913139049,0.3512462111061235,-0.24757885480151642,0.04999216933904249
5.791261196136475,-0.019811447839286858,0.0335628904187485,0.07271827679478454,-0.3019977495618189,0.1912295699824885,-0.13982731930026068,0.06907610540189148,-0.019115001544507494,-0.12338901022083372,0.2911234115824556,-0.19233466339261407,-0.1268025199215046
5.827420949935913,-0.01388964682252653,0.051296960696907166,0.11219864218824585,0.19244885509299675,-0.3636846163658374,-0.12149577738053138,0.0561211784135294,-0.04382516792191522,-0.11665177914484746,-0.18173228444472256,0.34546674171780256,0.09557908822084896
5.866241693496704,-0.009146155831452084,0.04238630531014441,0.08569690585665125,-0.2564507319204664,0.27339476199110424,-0.12585500005142056,0.04440894029509815,-0.012128350913878795,-0.07299110936664813,0.24758635236685017,-0.23525661819183152,-0.18397689377002177
5.902879953384399,-0.027518679347506306,0.03175150453357527,0.04071928952934267,-0.30169217640083945,0.2521570215970188,0.16545029401001957,0.05205914698172821,-0.0008820279407417975,-0.011855079397210151,0.32252610016172045,-0.2478883516973504,0.1339950609720498
5.939538478851318,-0.02448651384652715,0.01397007628123922,0.010339742271043808,0.3121033946760864,-0.18512692798732588,-0.14989243119677173,0.04437638757894095,0.011435871609272738,-0.006789710689401217,-0.32213293350360006,0.20334900045491439,-0.14723033761170132
5.976405620574951,-0.004495199127735803,0.031437914557872135,0.037957322276788455,-0.09203879819288047,0.10686466793678046,0.07258249618339488,0.019074224690508707,0.0029062115879532457,0.001028640899601553,0.10038922022648072,-0.12839766655102064,0.06661218075806791
6.0127668380737305,-0.01143683450420202,0.0455994993552647,0.08130144058434803,-0.3445763145449826,0.23602216844984578,-0.14307928629220337,0.023902553347768512,-0.011760887979104512,-0.027190373097848768,0.3340543475831904,-0.24429020630397252,-0.15557700862542212
6.051752090454102,-0.011257154499012054,0.048516701356521134,0.08063715351445992,0.22662443198741833,-0.1417264098092235,-0.09386065364293236,0.02099883862103458,-0.021769330090201683,-0.06262933791243766,-0.22620453721500489,0.1405702286408837,-0.09093142087820749
6.083480358123779,0.012072350887205827,0.07044698347751886,0.11687956773940028,0.14889506060857072,-0.06078786505845886,-0.009738818682429942,-0.004181510034851312,-0.040374161205720016,-0.09026071209853136,-0.13614692468911077,0.04052224061482251,-0.009294558592407048
6.118835210800171,0.008164055623027232,0.033595249948645343,0.03801733436458472,-0.3764745502125162,0.3099586457664838,0.06884529677140684,-0.007900329301747366,0.00029144711954599833,0.01900148955689468,0.38915510003719517,-0.26688345305098554,0.0608711258118433
6.154184341430664,0.0006859268677299971,0.014037117481449951,-0.030188341184540265,0.15649156252441354,-0.09068156334157895,0.12564247244314086,-0.0040518905141457996,0.011008893161858406,0.050810044846609385,-0.14144133476191162,0.09273459888019331,0.12977256522121988
6.189332962036133,0.0174860113022745,-0.008596633595825826,-0.07803635883875173,0.1627991666165295,-0.05757989965380124,0.007068615265239067,-0.02232580427014924,0.03636476676211542,0.1002356783823109,-0.1677041371412588,0.07605135337577393,0.010571074937830535
6.225949764251709,0.019611950928131797,0.020481990229625262,0.01454064560727844,-0.3994043210670426,0.26832044283082845,-0.17731092066572418,-0.020178337698977533,0.011874493130209988,0.040457324476182645,0.37170926521102116,-0.2967543300448948,-0.18834285279529162
6.261859655380249,0.010734281118593106,0.009186843804262606,0.0011598242746540012,0.13794344365148892,-0.09266044557056324,-0.1367908443374252,-0.011177033944468834,0.014640030742170629,0.01807740916077545,-0.15374770660764475,0.1084766659939278,-0.1290069989703715
6.301036834716797,0.028297385524689005,0.03502818922308638,0.05835703324735621,0.15919939444734352,-0.0781911914077916,-0.04491641118513183,-0.026287730359077298,-0.008145224642740478,-0.03910303397678385,-0.16147753178007634,0.054342884930713195,-0.045014094021366524
6.3365607261657715,0.02235531872039152,0.0134898526570525,0.012816072059812736,-0.38296441531729897,0.3095079784249395,0.09280566270983819,-0.02469181034344771,0.018628276735157007,0.038495892515994244,0.39328789174674833,-0.28054633498719966,0.08326198749714356
6.370924949645996,0.012812224287849928,0.017076240328683046,-0.0032746391147507325,0.13845394058188443,-0.09204638451108754,0.08748132128812912,-0.014941268052140015,0.006957289598491324,0.020963644770517768,-0.1258595127230418,0.07687571388593828,0.0908521134432425
6.4079999923706055,0.025709362697821425,-0.003543747653858075,-0.05179049180447007,0.16703313559975635,-0.05670340872140246,0.025015780796422832,-0.029190237943803814,0.030666385594437982,0.06972494011916033,-0.16777710748335187,0.07850321512179925,0.028605987079056434
6.44338583946228,0.025027657244670317,0.02417667984039889,0.03603675555308493,-0.39674631581996617,0.2720534203978481,-0.17767439306185412,-0.024275216998165726,0.008095214511644425,0.016005041816896118,0.3737710276010854,-0.29410569170301626,-0.18878839126183583
6.479581832885742,0.006420181465412917,0.004228264485592957,0.0026741768077922293,-0.05494846841358775,0.03978453290067488,-0.09404122229215112,-0.006991940269858853,0.021535817831292804,0.025118899719507187,0.04409816385784515,-0.013740783328939632,-0.08805113848259276
6.51516056060791,0.015107191203032392,0.029474688745530147,0.053171532909200944,0.19900391701934572,-0.11635929732085823,-0.05598893619219646,-0.012803516334632448,-0.003643178935213858,-0.04083083346988725,-0.19961951899197133,0.0906482583869673,-0.055472967658290094
6.550141334533691,0.012064304871537609,0.011175234781745067,0.01085382616270341,-0.3339034623917365,0.27874011711810287,0.09994895479908203,-0.013752358697730772,0.0210804454872738,0.034178168526591904,0.3444950308361899,-0.2530982899367811,0.09124505034332589
6.586394786834717,-0.007534220509954422,0.040700594109622124,0.07246608964279004,-0.26779080925480603,0.15381540793931603,-0.07088841865662884,0.00914619584954516,-0.013151339708303005,-0.036206000500740104,0.26545406561525625,-0.1875300475300195,-0.07657328267406913
6.623414754867554,-0.010726184344931895,0.010592715538826382,-0.01582698016351143,0.25695830514573825,-0.12931316792936381,0.0755670395254687,0.008715860103268752,0.01314775465840147,0.018954875017270778,-0.2454239386433043,0.16189823966133676,0.08139998756418895
6.660517692565918,-0.004160796881877278,0.01840778386886667,0.03843820433556244,-0.28861301812725415,0.21468453352535316,-0.22893338281183775,0.005117929341493377,0.012404389163559813,0.0005452907317834571,0.264867995056358,-0.2115361221193871,-0.23387152787610224
6.698982238769531,-0.024553256370453382,-0.010687731726859849,-0.027017536531451947,-0.2809510734931413,0.2057693458207678,0.06595650149838309,0.021149566825382028,0.03903935210673101,0.06218406237376841,0.2814086209971576,-0.17957146131465937,0.060713399773828586
6.734483480453491,-0.019808601874630787,0.013003012317064053,0.02033293572686963,0.2494967835397931,-0.16940887710585065,-0.09582888809750717,0.0206435601187182,0.010898446277439824,-0.016466372097364033,-0.2565961243241127,0.14116066873158709,-0.09266913987035338
6.7703235149383545,-0.005760932075884392,0.026611089926115532,0.03463068988104336,-0.12629537139724484,0.12532390547628627,0.10169484881215293,0.0056192706454606355,0.004490105549194415,-0.0022321940840285322,0.13864087285769755,-0.13544578922319309,0.1003555494966634
6.804928541183472,-0.014133529935388574,0.04671995420084693,0.08653291125373827,-0.32163810832208495,0.21378359168302014,-0.130808739896591,0.01648785270714798,-0.016328724831561788,-0.04401665231286034,0.31465279511877364,-0.22526171574250212,-0.13990436583091995
6.840317964553833,-0.016656768144004287,0.017041371561495166,-0.0031771260025588166,0.22982901028848945,-0.11490641920389705,0.10239399629766585,0.014739212243196275,0.007998188259385048,0.01181199292875399,-0.21391030649117615,0.1451156671558904,0.10740165187014164
6.878490209579468,0.008395452504434135,0.05093817558400027,0.06699539894954154,0.14005567524974671,-0.07010504601843753,-0.06759591730939282,-0.006414129667808943,-0.022231503045562127,-0.047188817262753716,-0.13952872827685037,0.03471210895043081,-0.06699415805649006
6.91596794128418,0.005895523513550354,0.020790827796183173,0.007565427113456341,-0.3689524956695608,0.29689446694281846,0.030079295992504543,-0.00833177402766282,0.012458789487607338,0.04372965332652662,0.37122784384644036,-0.25816113043847944,0.02248202288081759
6.954601287841797,0.0026066777274017343,0.03159231887424355,0.036311460885099414,0.14514559020711248,-0.10611897269191845,-0.1465350863851389,-0.0018866526630213244,-0.006074849440972113,-0.01803057847350445,-0.1560869958716281,0.09048009289046816,-0.14455393585794302
6.989929437637329,0.01801721219175368,0.004626422895910979,-0.02891332401271894,0.167677363218354,-0.050036731715585266,0.07940414175711502,-0.020820681543877374,0.023918563441564025,0.04862438556851606,-0.16104820888069976,0.07586071739656194,0.08340403035094074
7.015255451202393,0.01938779257299148,0.028458865226013503,0.048642985324465246,-0.39667519909656546,0.2743783226154934,-0.14743475116227106,-0.018627893904442788,0.004828075729595503,0.0053085979616112125,0.3800497093127883,-0.2952720471472524,-0.1586451301426815
7.050591230392456,0.012042790953404374,0.044284626658261154,0.05885542337276702,0.1485083886550005,-0.1047486404375092,0.03759217659975658,-0.010874121460897666,-0.019189586548742858,-0.04039953532179833,-0.1381669656265449,0.08277451272261893,0.04242765346970176
7.088980197906494,0.02868803027485524,0.06088080530881319,0.09312342432247223,0.1631557697188781,-0.07256248891012002,-0.08420405035333454,-0.025607881714261573,-0.033068866646303804,-0.07375152729108515,-0.15903047923058583,0.06382655934924023,-0.08313436114640149
7.126603126525879,0.021916539300464086,0.03077925146243033,0.02957502554063393,-0.3841002275549965,0.31360927566480123,0.07330583045439022,-0.023985681949999314,0.002182768805169953,0.021958362044421822,0.3946722409215399,-0.27658986453899237,0.06384726239846303
7.164497375488281,0.011049159230795658,0.006801124298937675,-0.009954073925304056,0.1363974344143687,-0.0875360809428748,-0.13312033597625345,-0.013005161633199083,0.01771949958914127,0.028395161412869817,-0.1475374098662901,0.10805878561599558,-0.12419467904987794
7.201117277145386,0.024034939901164717,-0.014283947430224715,-0.06060009328500359,0.16693764358698865,-0.05827476053562179,0.08405977852728994,-0.02823366218170329,0.04195411906945622,0.07883568587480062,-0.16647501269985004,0.07259939118711205,0.08623399692237702
7.240905284881592,0.023616132055953587,0.013634068126803421,0.02698521544043201,-0.39775333434333443,0.2716353020935249,-0.15699794828064798,-0.023501726970967037,0.018997304515218253,0.025317302930472227,0.3763836845718906,-0.29784988721844147,-0.1689461882153692
7.2766008377075195,0.014225268152958822,0.02670547708562164,0.028436113913040326,0.13941761997243057,-0.09583357848882185,0.0772396132601249,-0.014150231274838615,-0.0017706560782911572,-0.010269596249541227,-0.12858498850563566,0.07684681839760849,0.08338074004986454
7.316364765167236,-0.07547693286765073,0.033449209971584064,0.18244170414231994,0.374863442710593,0.046826062763855814,-0.016657863222915098,-0.027081415093986386,-0.020875777613264777,-0.05691468200275735,-0.1630914323600231,0.06376532330315621,-0.09571952442401255
7.352876901626587,-0.059219376472858326,-0.0019020864477959157,0.11962743764790659,-0.41345514338799483,0.2910669979244468,0.04509115885783789,-0.024574498812027733,0.0101179031167242,0.029438783801142114,0.3903648285859934,-0.27560075821942476,0.05886282586830979
7.392517566680908,-0.06666494590753846,-0.017262463041691302,0.1598091050452704,-0.24886266711632615,0.09847834686360304,-0.7412361051323682,0.0037450860767621642,0.014551512853089473,-0.05783560461482922,0.15024179825810263,-0.07520087125103167,-0.7283623254412173
7.430862188339233,-0.05310933761103974,0.00799757441909614,0.15723331912618255,0.21885825783472923,-0.14730019063758276,0.15442103600987356,0.0006237585628347322,-0.014209406209871111,-0.11088967635840886,-0.2065780505806416,0.1035536153372105,0.1601296646676591
7.467771530151367,-0.04018878622221393,0.00692264580171993,0.14992572095464787,-0.305896476436737,0.24243029902911745,-0.10445450576902066,-0.0009077757352300773,-0.005829580106611823,-0.08832334326739098,0.30491432588077727,-0.22625336792318015,-0.11023309228376554
7.506327152252197,-0.05406452348598469,-0.03782366482307312,0.027965755768820502,-0.2649180835662289,0.20837423992365017,0.08436759628673718,0.017004998925458918,0.037794343211918685,0.016090929426607323,0.2779362620148171,-0.15971675019554288,0.08173985758464752
7.542238473892212,-0.045576131417639956,-0.05921378400106457,-0.055339704624331215,0.2546140294000857,-0.1383899623283842,0.09502045952855304,0.01545202559840494,0.05845836145234338,0.06184741578522871,-0.24590236029092866,0.15209975919569285,0.10026837922072185
7.57822060585022,-0.029782936962814047,-0.04372328879111138,-0.04714573320742564,-0.2729700882109338,0.21287316614936364,0.11497964747754318,0.007370137449407951,0.054256217293761726,0.08585328134035725,0.27473360132840224,-0.23071887608245323,0.10881414009085287
7.614692687988281,-0.03627601294946162,-0.007059053363730153,0.02632328538060623,-0.2953515551486368,0.17504094465312534,-0.1581442111229241,0.024670332694876743,0.01867969294463067,0.010130337475536141,0.2766597342012755,-0.20267762649928198,-0.1662637544874352
7.649871349334717,-0.027341381505213164,0.01554575117005233,0.05533176012487713,0.2542507373235972,-0.162960688328566,-0.10452579799819425,0.022648694098195168,-0.004823675698378785,-0.051535745866602756,-0.26037491461700707,0.15370887717644635,-0.10042597255563494
7.684472560882568,-0.016340992507101314,0.002946713365711928,0.040668665737457095,-0.2763931108866429,0.2337922851139214,-0.08695571330238785,0.012919194857591463,0.01893245295983044,0.00019312268273509459,0.2700383609895782,-0.19753700281636402,-0.08745185089200688
7.72152853012085,-0.03152277565662607,-0.02059023253530959,-0.020750051205912508,-0.2881031535606564,0.21404485092727266,0.07190463148016096,0.026729041005567035,0.04216666411109511,0.0588920270942719,0.2921462271350947,-0.18786703736715102,0.06466893033628818
7.75966739654541,-0.02707895637593169,-0.035054639299057055,-0.07469332189788896,0.25942830488969015,-0.1480854086911625,0.0740633398962647,0.06652132309176396,0.02071613546068171,0.07603037433054934,-0.3208662212313926,0.0400842624722246,0.025650297568868954
7.797353506088257,-0.012601579924834625,-0.0012885568899348165,-0.006848680615314365,-0.2761231384297933,0.20137344223596398,0.019456434780858754,0.0847196182619767,0.03120527182698589,0.03389936372556558,0.2930861978898222,-0.12402342767082919,0.07801217968429613
7.834712266921997,-0.0213514646966498,0.015706225013758977,0.023076892209310487,-0.4137404863040081,0.17921408115544313,-0.07632762194007087,0.08234782290461508,0.01924374656097993,0.03461975486339718,0.4273379490158413,-0.22582703796292242,-0.01828483944376004
7.869155168533325,-0.016655591614938983,0.04262490980638286,0.05865273989070788,0.16499457011302593,-0.09754883273394116,0.004338339495977284,0.07004167688991912,-0.00368234396288028,-0.030967666943067858,-0.15942927410440189,0.07769128287557225,0.016641271856059896
7.9055280685424805,-0.003406887970417029,0.0293005285949852,0.055809983003788144,0.05329867841978937,-0.10096396090330444,-0.15880552550508995,0.04551003819713778,0.008267586479051847,-0.017373584475753254,-0.05806499287688768,0.007793273706291889,-0.17486532103728739
7.943145751953125,-0.010031638963342266,-0.013039457377601253,-0.0014609298409492266,-0.2977499266833439,-0.1447283906998552,0.017498194911693604,0.03710505151614655,0.0449336120391339,0.0668782916693015,0.30520760025501026,-0.20856252137544573,0.0040865053674244145
7.983993768692017,-0.006809167405506024,0.010468236717198667,0.009938398024505739,0.1558441462877042,0.012434777955369264,-0.1449581626790993,0.031489791264856654,0.022647117791359153,-0.003105545827940856,-0.18019015685539547,0.0975631756250297,-0.14679717033079182
8.021013021469116,0.012844576080766295,0.029411931687496996,0.0608147735772462,0.12385666605608711,0.016988021639516442,-0.09408620298486083,0.006492817568249085,0.004929528796842112,-0.045269719301865886,-0.12624034756486036,0.03457181240681374,-0.09556508732714446
8.055885076522827,0.02014612067864507,0.02119430586294498,0.05711770401132145,-0.10116569697916611,-0.022992575113911198,0.028144285146968012,-0.008910711698291536,0.011289125236646325,-0.014565642943363651,0.11621177813663419,-0.10393598473464159,0.026160256263233678
8.09105634689331,0.026524409979612723,0.03749607439344854,0.07594164630773576,0.09266385007998373,0.0044210910444408905,-0.0995304664140727,-0.016631843892782557,-0.005385824689788113,-0.054668613155654036,-0.09717227083819299,0.0393032495396063,-0.10053222680746018
8.127886533737183,0.037099609657965237,0.03574442771255544,0.0870664455562643,0.08129904092186895,0.004914646417242075,-0.1504857532632595,-0.03027850353789099,-0.004061161652200496,-0.061836932815147946,-0.08573138569160046,0.03326642339059512,-0.14805014093261962
8.162742137908936,0.028748626459086893,0.014945334037601173,0.028600755560547426,-0.32661644813527646,0.274884448641584,0.16862941161186626,-0.02957327858804196,0.019223633822327522,0.019500223944436096,0.34729656899191375,-0.24609602238354064,0.16094807889759224
8.199416160583496,0.02109713724622497,0.01971447698674264,0.04368711182788405,0.12904946345970103,-0.08499078519250991,-0.16855979564670562,-0.02049746408209427,0.0065520664201551195,-0.02615803696009642,-0.13870798840113324,0.08274084818239777,-0.16644828566020856
8.236181020736694,0.034736229151312706,0.0378535519750092,0.07885131489799029,0.149158640193219,-0.08333627524246515,-0.061226732401949466,-0.03380132722562624,-0.009431105589956705,-0.05950821931850342,-0.14971409156692103,0.05246725513025517,-0.060525929126591424
8.273300170898438,0.028181657749330333,0.041109347573032855,0.13187344912493087,-0.3747875821576322,-0.15100884194337727,-0.10012558372547323,-0.029099725613913947,-0.016083543435039777,-0.06357727983298495,0.3828894862089677,-0.2837343333781738,-0.11083659349309506
8.309183597564697,0.01683408355366147,0.03890360301885036,0.04019563241261441,0.12986635318851125,0.03833805017370567,0.15345694808495672,-0.019479162795099147,-0.011928688366841932,-0.03347609828443278,-0.11646397897343908,0.08214879381051299,0.15903931313245318
8.350956201553345,0.027150283766710352,0.036380203768185265,0.05725314133680863,0.11110092056289139,0.02175337574683743,-0.21014908407427255,-0.02819175584591465,-0.00741666367071826,-0.0433422717942058,-0.12231293392485278,0.05173029007830489,-0.20703202099423723
8.386711835861206,0.02895648449758008,0.023318839272403677,0.04291010138275968,-0.09871100443669126,-0.021389563006340727,0.0179203600348265,-0.0330770321927157,0.005514527702221039,-0.003234647137672818,0.10949264248396252,-0.1026151291180112,0.015372400053203145
8.424898147583008,0.017586632083502446,0.013246658967699465,0.007606227058185963,0.01223318752428533,0.011123820484928208,0.03967745308610616,-0.021761698744390698,0.005666571106354995,0.0030749059323014923,-0.011877554411848582,0.037084053885813775,0.04009101836648805
8.462034225463867,0.025152178238336632,0.01538270574331051,0.02940295927866956,0.08441208879988142,-0.0002477608890644172,-0.20873541609363286,-0.02660363439792863,0.007448848442649376,-0.020375267528053482,-0.10141743415973314,0.032448958796266754,-0.20592137095601482
8.499078512191772,0.025681824601637124,0.023777175641058808,0.03300542869474797,-0.17317978360628328,0.16219564318010357,0.12302716318387216,-0.02873143481593839,0.003994430651266265,-0.000851230431079552,0.18772036147460353,-0.16426028061056483,0.11965991591946329
8.534264087677002,0.016545886081357025,0.01951684975898999,0.022134797280193373,-0.1091149805353118,0.0976735624705178,-0.03220620985015468,-0.019071337057039672,0.007705926003762652,0.008629983469985178,0.10899324812392332,-0.08677418562389337,-0.03340437417521355
8.566621780395508,0.0166428389864825,-0.005565869385710378,-0.043018019509818976,0.15154836981461237,-0.056501029415760975,0.05776747912144839,-0.021350726791674077,0.03173069519217636,0.06025975182057879,-0.14726616204589565,0.08191977320453785,0.06025471591523547
8.602073192596436,0.015145918078619723,0.0023877476331970286,0.035561695350496615,-0.3092881790113008,-0.10967140379891492,-0.2116683168814775,-0.016893448622918174,0.022475136496122615,0.024469625958727814,0.2912658502656381,-0.22885034120921482,-0.21880260553396647
8.636589288711548,-0.008522161373382482,-0.021993415410702974,-0.028185677210079092,-0.27852989369242365,-0.07850935152280689,0.07093589570696021,0.0038962473840934778,0.044488691879150444,0.07449717192747951,0.27718145957452134,-0.17677382960879082,0.06553536545718319
8.672931671142578,-0.009303962254828116,-0.004132173304998439,-0.01064925424358799,0.165408688170962,0.018799624220013453,-0.2019097332079158,0.01053312594740733,0.02981214791615086,0.0077986734214720715,-0.19664061063433363,0.11637896476976564,-0.19627903709356953
8.710473775863647,7.51914418122921e-05,0.0004997137580813648,0.01733309919267157,-0.058816076356107944,-0.02451983108131474,0.029100400361931122,-0.0004700969144263538,0.027553574590751855,0.011243594719696576,0.06732576061299628,-0.08845648987416355,0.027407954060788692
8.74690842628479,-0.004950545930351506,0.004295873239943546,0.011037374810852058,-0.1838325631574901,-0.03114799586110061,0.13349282291396103,0.0032571332405349545,0.022153477790689664,0.02813849232860584,0.20050534685044655,-0.15128465204540917,0.12940011840135543
8.781282186508179,-0.15278618290838603,-0.0760013618162565,0.1200737728903228,0.4370723316833276,0.34112776840545217,-0.08679477241298475,0.0037666299739482958,0.013369022766540695,-0.01797514219079657,-0.15990827899688234,0.0952124385271979,-0.22773062783614775
8.816391706466675,-0.10073487699441777,-0.04457067646226732,0.20565492874248792,0.07483577776364964,-0.07486292894224139,-0.046975791504526215,-0.012974924144166273,-0.019513769375699215,-0.0752634825548588,-0.11005208147128323,0.021410164132041054,-0.004612552577108658
8.853797197341919,-0.1291376908757511,-0.1290743254074338,0.23167198063823405,-1.4683838535591673,-0.25886185780999504,-0.7985547346075627,0.03225448047800079,0.058805540784902334,0.006129393262881991,1.3691060984892154,-0.8561363382920699,-0.8018246650316447
8.891416072845459,-0.16362053943778293,-0.08724194185044643,0.0815585135947878,0.03776002909606402,0.1809868404357734,0.26624622659127406,0.08686437959643217,0.02978503868188916,-0.055082373458262834,-0.060255826918567124,0.09259986595230651,0.2766844864191549
8.927478790283203,-0.12778261694079435,-0.06914790180143332,0.09093353200951676,0.30276182507773985,-0.0021201821222139594,-0.11751483633028947,0.06927874664678306,0.025038118916096752,-0.0831589233261893,-0.3057347706699093,0.16492821476607478,-0.10842374381670472
8.964517593383789,-0.088177133704348,-0.068511898499094,0.06492519017025924,0.05295020517474899,-0.05336843301193855,0.05877037229631829,0.04094616941395815,0.037018210094339414,-0.02570947365102466,-0.03163872710626464,-0.02135061295662624,0.05761312150526304
9.001516580581665,-0.06811286810630506,-0.027225082150045696,0.13080737601024023,-0.28182445681233415,-0.08668675936319536,-0.01019630653169748,0.03543060511723792,0.004088181036479219,-0.06428098530620367,0.2933573742186689,-0.2263133769442316,-0.017512051496269804
9.036146402359009,-0.05131544435432145,-0.017598067399857073,0.09084382852595407,0.15057037890587538,0.021041393408188225,-0.1826163685653455,0.10703165494099175,0.0439757506460558,-0.0553816767228118,-0.2591046338579506,0.13708102677769363,-0.12094586225082449
9.07457685470581,-0.02050257434782488,-0.007269179345591287,0.09932228345910835,0.12961712482430485,0.012900323320398527,-0.11440463787047234,0.09658287834061259,0.05215090065199107,-0.10252750111769313,-0.07083849668566453,0.10729929322187749,-0.10780511887616778
9.111064672470093,0.012271151341694961,-0.01511393426217643,0.05457861368562539,-0.15163353559512818,-0.04266505149835061,0.3088363775076796,0.049229147208537834,0.08149387595806852,0.008510745078805462,0.2093496896849629,-0.2384650020613076,0.3152080335234778
9.149599552154541,0.008367976097970513,-0.016295333901843678,0.011137685079984548,0.02476537569091311,0.014610745000184555,-0.024836086279915848,0.04436732002519546,0.0660484095759152,0.009090660009756644,-0.028236184189566138,0.06361168204102091,-0.03610747248371071
9.185085535049438,0.022637576796748056,-0.006871352660813727,0.03329720985466002,0.08574986215401134,0.008447619277314265,-0.2320618139264149,0.02183510108094847,0.05555299745155176,-0.020362482964194267,-0.10321497874531968,0.04338240621251398,-0.23298562502137898
9.219180822372437,0.026515242033800734,0.002213909896243744,0.04295597173597494,-0.16566473551578983,-0.04384459223019663,0.10847366363902788,0.005516321894239291,0.042487212419371076,-0.0035225575201075707,0.18657231259190374,-0.16086566772673216,0.10204525456733149
9.253508806228638,0.02192654525161121,0.022406919023299422,0.037337597767792434,-0.09371648868880511,0.13038852387326197,0.03945032263160464,0.0031102638837926582,0.021611792279814555,-0.0159675794972246,0.10015221272617274,-0.08334424188573539,0.038770389773692224
9.288416385650635,0.025072638616214026,0.02285407151853287,0.05043141206886548,0.12218788064045313,-0.030347899848074206,-0.22842344829753108,-0.0050421307507205115,0.016347880885597618,-0.03990704545031637,-0.13757505129516168,0.07777178964304968,-0.22572164158451302
9.323493957519531,0.028141405681218916,-0.00038108140027217144,0.025065527284559026,-0.07021690135313688,-0.0647371070649674,-0.06332316225427223,-0.016996224238307437,0.03760596018545878,0.00944420152601045,0.07063841984363767,-0.06389599430038789,-0.06130604468780482
9.360077381134033,0.016796292722610934,0.016606432264068695,0.07925755738976545,-0.31764673107265284,-0.07959963609884914,-0.08466863792878077,-0.008427299281066555,0.01696123503036893,-0.02791516967898778,0.3153831241250822,-0.23616067518641895,-0.09636315105339165
9.395114183425903,0.010784448037489024,0.023438445620942997,0.057433844839645753,0.1529844546929382,0.014717667142705088,-0.13846810412770838,-0.003458941602269278,0.009859401246439269,-0.05684134749493554,-0.1683318142897542,0.11000310220110446,-0.1342070576412752
9.430055379867554,0.024246687354107614,0.0359787630325488,0.08692052360365446,0.1253478860354953,0.01450894853280496,-0.06330755941329984,-0.019467755434075473,-0.0009420057244930429,-0.07602370957633925,-0.11900324946429318,0.0360352244900452,-0.06383248917422941
9.46727466583252,0.02321266310823097,0.031181146279658296,0.056774814360662715,-0.20552141836183324,0.20342674466538324,0.15911074101799016,-0.023939272713443614,0.005339004418172375,-0.020096021077762642,0.23157609997427908,-0.17702326375469235,0.1551439857229986
9.504120349884033,0.021621258735703707,0.041518606842492076,0.07569409237343584,0.11686162066713512,-0.05966980278874873,-0.12350698257714277,-0.021087329598713244,-0.01058646849387076,-0.057122290273041956,-0.11796672025714261,0.05974782367998166,-0.12361870319896645
9.544150114059448,0.034336151881325015,0.05777986418836506,0.1030904117537807,0.12702881750125775,-0.05920870129440136,-0.058035607391641694,-0.033720374501206955,-0.02580746131136128,-0.08094073486829967,-0.12337518748294615,0.04107963246195599,-0.05742616963425437
9.581498146057129,0.027434388185001986,0.055054511443380694,0.14115027132732677,-0.3627077143434885,-0.12257682251100696,-0.11087289404902828,-0.02874424836122038,-0.02684401251616845,-0.07334348471644586,0.37096442376998384,-0.27019349203154486,-0.12121372072080065
9.617716789245605,0.01571966672671983,0.04339208965215416,0.03280109768184744,0.1298503502092831,0.03322312302674313,0.17211830648602405,-0.019866141559429902,-0.014675811631333422,-0.024342927708388043,-0.11356747198105288,0.08139364447699798,0.17727582835425765
9.660215854644775,0.026267780346560937,0.03880064983435672,0.048147790866404014,0.1078200511400773,0.016727097669461108,-0.22144231282760046,-0.02841128560694791,-0.008513292616064178,-0.03271136761717792,-0.12202499680961762,0.05111301083331444,-0.2181860250789095
9.698277473449707,0.028675128567197773,0.02814920526115614,0.028345049708484987,-0.10971879499575411,0.13731702999965803,0.01386000818848604,-0.033017207688919165,0.004758153837585714,0.006092848135130453,0.11436018578675819,-0.10702291197297356,0.011149778037904678
9.735684871673584,0.016442004975605315,0.01400613762553654,0.003605063266862968,0.016895049164170214,-0.030729961782914345,0.03900920151203387,-0.021406879973722,0.004794529740928069,0.010348562513888642,-0.012975287293168464,0.037139603666339505,0.03956701840718227
9.772148609161377,0.02676482207641178,0.037270676769373325,0.04885731485288939,0.10921508647976397,-0.04175424686245683,-0.09340607001510394,-0.02809501150800677,-0.01387028027626839,-0.038908114845558506,-0.11356291919703754,0.022841873573465926,-0.09406876750593521
9.808178901672363,0.020376519991921773,0.023569672286471666,0.07906830280717618,-0.3425824155152063,-0.09916246272711216,-0.17182729519922424,-0.022354258494431185,-0.0015156448508721384,-0.02146826340088273,0.33606040400579634,-0.24340746871992977,-0.17739956343692886
9.844789505004883,0.005324034490121404,0.021973512561081047,0.02646792473272773,-0.08673054266201286,0.1596788778951625,0.0281844986798101,-0.00708027885814401,0.005070748851409649,-0.008319395819229006,0.08286089163446586,-0.057714596668742846,0.02811085868481017
9.881423711776733,0.00873014844750085,0.02328928383185055,0.04594665117291292,0.14808302780962562,-0.02901080308315554,-0.16340249873242949,-0.008675494392446505,0.0029289201448085968,-0.03641455443803017,-0.15728866417016157,0.08184444975954772,-0.16030013189884137
9.91673231124878,0.01430173538824825,-0.0027628665798080793,0.017860217662497613,-0.041200125470570004,-0.06167229634279185,-0.04440755240745252,-0.017156341747395415,0.029948171418288063,0.017581812218212818,0.04360141467110912,-0.04852428207578646,-0.04166946362707674
9.955883741378784,0.005879817375630821,0.015857140699540907,0.07914412410618969,-0.31905873750299474,-0.08298532053135926,-0.06579439152465835,-0.00665767715086777,0.009880328413688858,-0.02270238752718126,0.3185159753206655,-0.24137508436778782,-0.07714460489447857
9.99027967453003,0.0016469152079694903,0.021929709954067136,0.057270054159476044,0.15196154905848575,0.015401082775028857,-0.14126854988583348,0.00014136485910126902,0.005326570276008597,-0.05183566799757516,-0.16840976114895229,0.11016759024130357,-0.13688286109517261
10.026737213134766,0.01659477877703096,0.03068811487399266,0.08329798231412,0.12474733187525716,0.014803819327562757,-0.0820379625665344,-0.014889955613506206,-0.00048577574884372653,-0.06807453660603807,-0.1213648097211932,0.04066187454078224,-0.0814951096335533
10.0619215965271,0.017637614840679383,0.02716846001472014,0.05626310412593246,-0.19877868225636935,0.19847217995231484,0.16095865398007364,-0.01951550940253708,0.005558154686387995,-0.01651914184572926,0.2246800954838589,-0.1741856282060007,0.15680619001291066
10.09827184677124,0.01772846935726457,0.03721051338487312,0.07525311855203666,0.11458675347590586,-0.05693646183412268,-0.12529551121706445,-0.01715540575330468,-0.009091688603405375,-0.05363258300036372,-0.11634684042613627,0.05798616363194989,-0.12559095694707587
10.13449478149414,0.031476516129747154,0.053767334454984876,0.10304687973557114,0.12500613102577643,-0.056700854305500745,-0.05721337846939033,-0.03010816751641815,-0.0240202471339269,-0.07853909916635161,-0.12158228702098797,0.03990755921789731,-0.05658343703159935
10.170527219772339,0.025512733151064573,0.051586194740557124,0.1413674896092039,-0.3619496260859625,-0.11984943813635043,-0.10973196371319074,-0.025581421423465107,-0.025135434273598677,-0.0721436245885497,0.37024904491694477,-0.2694707059726893,-0.12023011378506254
10.212130546569824,0.014403641395030219,0.0395628142955508,0.031395254449038124,0.13020204249371065,0.032590967188892705,0.17755533529274872,-0.017290417018179065,-0.012370105628675519,-0.021885360356258814,-0.11314841860313546,0.08127974024304813,0.18272491197226193
10.2540602684021,0.025524421599167794,0.03569065082380684,0.047617960663884545,0.10725431325095197,0.016332950731442312,-0.22307642370745298,-0.0263291070609028,-0.0065657414474009045,-0.031402672684125645,-0.12189651857197167,0.050975377777899435,-0.21977670470920996
10.29667592048645,0.028314976602804718,0.02573578205137102,0.02846651689998009,-0.11037960770962366,0.1374541511495892,0.013478969510117539,-0.031370128053905905,0.006264380951904711,0.006427257323099934,0.11498540534016302,-0.10747499775783667,0.01068605757723115
10.334919929504395,0.016339399739925223,0.012148041780944956,0.004089951276772849,0.017006380479733962,-0.030928251431135784,0.038963570899547696,-0.02013383620569821,0.005942134039651988,0.010077298649151623,-0.012953567179661368,0.037192070530899596,0.039539928381757204
10.373286247253418,0.026820743624775968,0.03580163009679564,0.04950450999031144,0.10920061516853297,-0.04165036134570144,-0.09380276367906734,-0.027183704923910444,-0.012899624179609596,-0.03936591060982306,-0.11364808972837967,0.0229740004548121,-0.09437713937322195
10.41334080696106,0.02057235420258413,0.022440877386265292,0.07973962565650765,-0.34268924138037127,-0.09909366450202554,-0.1715499269235596,-0.021713271354804983,-0.0007285892474587809,-0.02202965622770738,0.3362646372172956,-0.2433545274451228,-0.17736750596817347
10.448993444442749,0.005561042476842491,0.021101260871200823,0.02709276564134453,-0.0865676732185292,0.15971389694643923,0.02825406240774747,-0.0066542400013795446,0.005697275919507177,-0.008903424198803198,0.08287429213989056,-0.0576099601958725,0.02816846096350431
10.488343000411987,0.008960620964852844,0.022544100121952192,0.04643378971575052,0.14793806296771617,-0.0288055929968995,-0.16391094042891682,-0.008431413546854068,0.003553666559229218,-0.03678674235728975,-0.15729553846164127,0.08198256609450094,-0.16072641473102825
10.525541543960571,0.014523534116794242,-0.0033361136777849756,0.01824469059406503,-0.041192990266637836,-0.06148023910060356,-0.04422036751496604,-0.01703864497407504,0.030463083582925148,0.017237192881580987,0.043697676888833054,-0.048563936450338824,-0.04157062546910689
10.558879375457764,0.0061099625268451144,0.015403753398527537,0.07944034727647632,-0.3190736525392034,-0.08280190747496617,-0.06575399133382467,-0.0066122815287103665,0.010320936882725087,-0.022967815187810756,0.31853088328658496,-0.2412388226026684,-0.07723835769827181
10.595325469970703,0.0018103169969622282,0.021461719734659785,0.05739916104106623,0.15181926381158484,0.015492869540987608,-0.14193859499252626,0.00011798174902599278,0.0058393326176227195,-0.05184347931488572,-0.16848569175044492,0.11033982335574907,-0.13744145102083857
10.632200717926025,0.0166991373463357,0.03024144569090409,0.0833223497435608,0.12462688497774138,0.014866831249925725,-0.08237499583760692,-0.014962395030574706,4.082891642725149e-05,-0.06796286617091475,-0.1214353097649493,0.040745237087929057,-0.08175997300191319
10.667699337005615,0.01773768529755738,0.026819619713314084,0.056293422202033,-0.19842727631746515,0.19827713058045,0.1611381754628491,-0.019602935051119926,0.005933836757251524,-0.016567877115505933,0.2245214487028407,-0.17410760648162316,0.1569004668713816
10.702778339385986,0.01780591950302329,0.03694581413175682,0.07533592725407492,0.114379903799329,-0.056762300436174196,-0.1253069429396685,-0.01727053213699262,-0.008764462937736958,-0.053632197615631934,-0.11630554422333772,0.05793366864683744,-0.12553589048531033
10.735119581222534,0.03150482801845203,0.053561489388609856,0.10314443182188406,0.12480787053274264,-0.05652642914468853,-0.05729967943404751,-0.030230653694271234,-0.02374000065423365,-0.07852328418367586,-0.12155415352180919,0.039870278687004615,-0.05658923768103301
10.770246982574463,0.025563614747053355,0.0514213200783,0.141409060358493,-0.3619651311283898,-0.11965490075980159,-0.10962489463662344,-0.025678614311201123,-0.02490227008592297,-0.07214464655692526,0.370222221792287,-0.26931759340097794,-0.12033375829441269
10.805112838745117,0.014419925595215165,0.039439929314351016,0.031507305689081264,0.13030629916139824,0.032372212609971585,0.17740561611645667,-0.01738314722549303,-0.012234332888584597,-0.021988484802738094,-0.11310266092230759,0.08117823130373697,0.1827082009142995
10.843491554260254,0.025518106336824282,0.0355333628989288,0.047632461595303016,0.10704048013531961,0.01651799378646106,-0.22349041026188843,-0.02641612380221559,-0.006351614299984581,-0.03134250832099761,-0.12195381618624268,0.05110732313652114,-0.2201697355090394
10.878939390182495,0.028302447123373577,0.02561039017017351,0.028468589119345463,-0.1104162486429835,0.13752681489266377,0.013665793861543873,-0.031440370450509736,0.0064280645679029615,0.0064351970894075405,0.1150638154703979,-0.10753012632037312,0.010794644274650045
10.91137433052063,0.01633171870273958,0.012049095449741367,0.0040925117606580574,0.01706577546727886,-0.03099061617664889,0.039026846362355885,-0.02018277595799265,0.00606458227389176,0.010062924083301259,-0.012959028861399768,0.03718511001870167,0.03961686011535255
10.947750568389893,0.026792609882699756,0.03572197978770186,0.049543881062868715,0.10902139843383553,-0.04152408615509147,-0.09397312026200395,-0.027236619743135283,-0.012768012394354027,-0.03932911302029908,-0.1136783245435673,0.02298333806959965,-0.0944623532960268
10.981334686279297,0.02057975794065874,0.022387659207291154,0.07974475423972135,-0.3428275224520807,-0.09897273224700376,-0.17131243592672143,-0.021742922745168335,-0.0006104434084292232,-0.021992867300881156,0.3363523154183999,-0.2433004985840679,-0.17737415549953994
11.014670133590698,0.005561560313460383,0.02106381121212501,0.02710500512373032,-0.08648942896855327,0.1596991950128498,0.02829733004926749,-0.0066713912933665225,0.005779609751140548,-0.008899197350955458,0.08284377412079647,-0.05756213492668005,0.02819833875055497
11.047643899917603,0.008942157720681429,0.02245471491076458,0.04639838700710801,0.14774489552357567,-0.028657183757987703,-0.1644060239785014,-0.008455857065007533,0.003724658517988649,-0.03664536498384398,-0.1573612328045653,0.08208630508124845,-0.16114200257924757
11.08233642578125,0.014507605177439025,-0.0033946885144712086,0.018211068524039167,-0.041228960095333084,-0.061339786366472374,-0.04403002348887507,-0.01706171137163185,0.030597621280278868,0.017310759100487426,0.043752089905383845,-0.048631791416595876,-0.041467470758272104
11.113836288452148,0.006126571086787439,0.015356599389878451,0.07942338565603113,-0.31912290667222165,-0.0826625594942309,-0.06571674307960704,-0.006617473188902394,0.010439127773201617,-0.022916451798081577,0.3185154919008284,-0.24112318410348563,-0.0773367882426382
11.148591995239258,0.0017920062238337585,0.021334551471069607,0.05732863236250788,0.15164599918960575,0.015577538061124455,-0.14250781883096725,0.00010308468951459107,0.006060453000054091,-0.05164682992721979,-0.1685637146238278,0.11046384483551971,-0.13790548892315924
11.182782411575317,0.016653632618292405,0.03007724505199825,0.08322993924044561,0.12448728268754768,0.014923162789264068,-0.0826638627354958,-0.014989071072794641,0.0003084580781057616,-0.06772771932149887,-0.12150704036040325,0.04080148103418456,-0.08198001376071404
11.215894222259521,0.017720968121528045,0.02669670831428464,0.0562664320887912,-0.19799745498029242,0.19801219431883424,0.16123711464246543,-0.019626925637812438,0.006088174321996428,-0.016555513369978965,0.22426263697498497,-0.1739708805554132,0.15691946307160362
11.25160551071167,0.017795471116838064,0.036840621446292854,0.07537187809183438,0.11414436867001765,-0.05656139921911882,-0.12538751919095997,-0.017317596928453024,-0.008601568643732682,-0.05357347225830091,-0.11625213689177064,0.05786890706383968,-0.12555161350556135
11.28592848777771,0.031466191347551055,0.05347543717094725,0.10321621512481394,0.12458360931961288,-0.056330770624924774,-0.0573583785296658,-0.03028341991424501,-0.02359228420360832,-0.07847094848617751,-0.12150267985652735,0.03981476938323225,-0.05656786337817242
11.32430911064148,0.025565279929209987,0.0513418909510293,0.14143262933877374,-0.3619726881496577,-0.1194396101380942,-0.10951471025826644,-0.025709807197855695,-0.024771533109541503,-0.07212032217062796,0.37018440174689726,-0.2691573055651833,-0.12043393376132393
11.358794689178467,0.014401375063260096,0.03937101591305464,0.03159909029595388,0.1304076997342089,0.03214496758076965,0.17727913368596138,-0.01741747117109556,-0.012172217546092962,-0.022062155848411515,-0.11305272712769143,0.08107307640449296,0.1827146598113512
11.396350622177124,0.025488570572766784,0.035411294489838645,0.047634089038765454,0.10682106942052269,0.01669750547072083,-0.22391327831144503,-0.026452788547767617,-0.006192412750706259,-0.03126070371202125,-0.12200810966844625,0.051235204411152854,-0.22057206322352324
11.431365728378296,0.028275150267354856,0.025506558801809777,0.028463362183449473,-0.11045948363973429,0.13759860918945335,0.01384795627218266,-0.031468496802889157,0.0065511633114289265,0.00645835214683485,0.11514742063348685,-0.10758965313699571,0.010898759654713736
11.464508295059204,0.016315437131479135,0.011961847963806008,0.004091375174480522,0.017124582987786685,-0.031055062726894705,0.03909091366172459,-0.020197555216796247,0.006157567996313932,0.010058962556737041,-0.012964182001607344,0.03717726288813904,0.039694717394247875
11.500274419784546,0.026760520245270304,0.035646873392408254,0.04958175411987587,0.10884325395630104,-0.041398981786950784,-0.09414664693461297,-0.02726278959433406,-0.012656904210886893,-0.039284831444395436,-0.11370948886439264,0.022992903580997474,-0.09455127102263589
11.535932302474976,0.02058622799042559,0.022333687824863054,0.07974915252066675,-0.3429658114791191,-0.09885762030960946,-0.17107333867460311,-0.021752308108274783,-0.0005057383784175893,-0.021949580720264216,0.33644079408845845,-0.2432470054172825,-0.17737910415311137
11.570038557052612,0.0055631686334693415,0.021022887715286525,0.027117673517305985,-0.08641056878218378,0.1596853579743324,0.02833910521914701,-0.006673655236149045,0.0058531112120423934,-0.008890769867092072,0.08281287279721533,-0.0575140803915897,0.028226976526733394
11.60500431060791,0.008925951528439917,0.022358753756490476,0.04636271672481592,0.14755115601615015,-0.028506756635690217,-0.16491061344302607,-0.008469716187530079,0.0038919016139748836,-0.036499464585132625,-0.15742705997406709,0.08219124984185117,-0.16156732556919773
11.63764762878418,0.014494502060234653,-0.003460390057464763,0.018178516934809152,-0.0412640994212837,-0.06120109311230502,-0.04383436397452602,-0.017077658368456636,0.030730554910642322,0.017386972303397558,0.04380665823578017,-0.04870055692616862,-0.04135865061942531
11.672927618026733,0.006146135309303424,0.015302049186161817,0.0794079352088164,-0.3191716556117241,-0.08252597958001208,-0.06568204859220499,-0.0066181524393174075,0.010557402440102157,-0.02286345295934434,0.31849961012115446,-0.24100679891535462,-0.07743838893749336
11.708924293518066,0.0017764528720686408,0.021197043845674425,0.05725586660773593,0.15147260434284882,0.01566428908384146,-0.14309579693592311,9.087139318993825e-05,0.006286104813822796,-0.05144534230345416,-0.16864369230844212,0.1105922252176599,-0.13838795972064932
11.743435382843018,0.01661073416468551,0.029903206734933734,0.08313600722617782,0.1243473402243744,0.014980757095239444,-0.08295288796136341,-0.015014498609386168,0.0005814609317369235,-0.06748888049975221,-0.12157860361765799,0.040857160627827474,-0.08220072689995564
11.77788257598877,0.01770679061380271,0.02656610886482676,0.05624104604113658,-0.19756091060446607,0.19774246638595805,0.16133537693894728,-0.019650898048352478,0.0062465726561685125,-0.01654324436715235,0.22399676611870828,-0.1738303917828179,0.15693832379513833
11.812662839889526,0.017787539505438973,0.03672919424641991,0.07541036170017153,0.11390815037189589,-0.05635912860143405,-0.12546542284679674,-0.01736557943798857,-0.008435149369194095,-0.053515670095887556,-0.11619710571935671,0.057802528237621636,-0.12556520541561483
11.844680309295654,0.03142967105172245,0.053384356558594755,0.10329085718168327,0.12435806210400557,-0.05613405430965193,-0.05741614806614252,-0.030337317970020573,-0.023441675626482195,-0.07842022065159501,-0.12144908487260585,0.039758111787375795,-0.05654606263896779
11.879089117050171,0.025568515151290203,0.05125806977263941,0.14145866654065922,-0.3619792933881753,-0.11922773005090599,-0.10940547521840789,-0.025742201994152624,-0.02463810614109597,-0.07209752960950357,0.37014582407740076,-0.26899593673392735,-0.12053533816416648
11.911733865737915,0.014383951331236768,0.03929718585333863,0.03168949586150731,0.13050931753144657,0.03191964172886254,0.17715849272027262,-0.017453077221069,-0.012106529441566089,-0.022134153887838633,-0.11300249601502205,0.08096827953901009,0.1827271119649764
11.950498104095459,0.025459811402601278,0.03528298223333239,0.04763241372587019,0.10660091816499111,0.016878182893942002,-0.22435140763936173,-0.02649048478032628,-0.006027826739871526,-0.031175134108432295,-0.12206350370792508,0.051365778033596925,-0.22098951137998532
11.982604026794434,0.02824845997635582,0.025397849631697673,0.02845634367478073,-0.11050178084822483,0.137669475309527,0.014032696128664202,-0.03149758325909075,0.006678498495654279,0.006483459404733809,0.115230205761693,-0.10764931410599018,0.011005482432076663
12.012521743774414,0.016299651998932147,0.011870897407540507,0.004089702662223315,0.017183088406009475,-0.031119332055642712,0.03915686856620664,-0.020213205418446997,0.006253798174778832,0.01005570752612961,-0.012969048883142334,0.037168669265788795,0.03977448779377067
12.04703402519226,0.02672884725599385,0.035568888103313684,0.04961973278824801,0.10866495007156625,-0.04127358486730951,-0.09432137207867827,-0.027289665745157236,-0.01254315038032968,-0.03924047690270323,-0.11374038988987505,0.023002285840335576,-0.09464201046443925
12.084205865859985,0.020592915786204556,0.022277361555613627,0.07975393733172456,-0.3431036454082238,-0.09874613592923565,-0.17083381879674497,-0.021762254344951215,-0.00039886966299251814,-0.021906346558822412,0.33652911352176584,-0.24319313195312153,-0.17738357643604563
12.114562511444092,0.00556492856790803,0.02098033600376052,0.027130978760412268,-0.08633156972529743,0.15967220730643827,0.028380328837609547,0.08185095326954044,-0.06340102236784262,-0.00089840992579409,-0.07041402014874404,-0.30592950505244426,-0.08699975621867986
12.147271633148193,0.008909774449000117,0.02225963236497788,0.046325481558076885,0.14735694670060132,-0.028354964817550204,-0.16542666883090779,0.06000540231409253,-0.0643166937528258,-0.0018207474117790273,-0.1344306972394081,0.14038417838899087,-0.12785126307431077
12.179999113082886,0.025394334198378252,0.023474245214881156,0.06508870770517987,-0.25454138081078526,-0.0956649781558269,-0.09790437857862513,0.02780231117640728,-0.04750258365018033,0.0613829414484265,0.29419817290277767,-0.09496953831781235,0.04295487005466836
12.215836763381958,0.004672954280252547,0.0272562725043213,0.01651207758561471,-0.2887216356786953,0.29445398071608764,0.15793621433299795,0.038198754793339444,-0.040724709137258355,0.06207465479551693,0.30768631784577954,-0.21518561048842383,0.11539398501797506
12.249353408813477,-0.0008635793275103831,0.025156691239915967,0.029838087333454173,0.1877989656530547,-0.0751180341961642,-0.2078361901305479,0.03682326515317095,-0.0402366916011901,0.008535642221654899,-0.20283548146540648,0.12119152500225294,-0.2157885156590364
12.282502889633179,-0.0594931495677522,0.06188835476121336,-0.03185496233680412,0.2039470123924999,-0.193375842205007,-0.15264678328990872,0.010392097584686257,-0.014964380266108704,0.030208354148671592,-0.19835223728009305,0.09831672394762768,-0.06332812290305778
12.315943717956543,-0.04725448835357121,0.07113213761614567,0.060236593223859804,-0.3791997547492991,-0.2642580322376399,-0.062216300262013455,0.0041916977543441335,-0.025584395171465216,-0.005922335095168072,0.3732060767335113,-0.2939716951807355,-0.102397809269012
12.347363471984863,-0.019025127124768847,0.04215530422106557,-0.012820057567435157,0.7915319072534508,-0.3445488655823267,-0.38640992174945865,-0.015259320190282616,0.004067354346840215,-0.029798010696599552,-0.8476251046186396,0.5684549928613056,-0.3765332020001929
12.381944179534912,0.03205303077287967,0.05225032270002694,0.058030186838810484,-0.02772685454723023,0.17497792998979517,-0.02770715654243666,-0.06167170660677656,0.007747223607520457,-0.031392750536172964,0.024916679713782086,-0.10140073201516175,-0.03489663472299587
12.41853404045105,-0.05831536255788439,0.05904874304729604,-0.04681666567169782,-0.40429870773328014,0.22672206678063728,0.0006750666987525682,-0.05288214146798974,0.05111897304846922,0.07061520793023651,0.43862408376202855,-0.2821600634761671,0.07129371216976281
12.454025268554688,-0.0472462347003451,0.07301159538133178,-0.005883012194388956,0.15683656592251727,-0.08450714868458581,-0.029166027227110123,-0.04081068131327827,0.024433832068140107,-0.00787369525149137,-0.17526678616935,0.09792360358978058,-0.051085193255195255
12.484102487564087,0.000623368705194069,-0.004172130774040966,-0.10623811265932578,0.7638297041276945,-0.40895548020352196,-0.282548887301797,-0.07483688790711171,0.09199159753908112,0.07199251073853612,-0.8051808641894428,0.523748579769143,-0.26946563699893344
12.518178701400757,0.03288604099478838,-0.01578152134345875,-0.08356897815238634,-0.5341883971785424,0.4318045520740528,0.1284264497036512,-0.09402059229457434,0.1111229205796206,0.13751872241216914,0.5264713626922904,-0.42286981887126873,0.10871370695159843
12.551281929016113,0.00591111736328017,-0.033602319280531326,-0.10268570329389816,-0.4206873765880064,0.263213913970191,0.056950004104919044,-0.05338357884728739,0.11075086544148553,0.14292470207042937,0.4095254327956575,-0.25737441220759716,0.04600372532686825
12.586190223693848,0.007492055105701631,0.00013648248668966106,-0.024977798455420003,0.2747192468286234,-0.20554567014502995,-0.08509733247615087,-0.03775096029609609,0.062433729873539394,0.020262336649771368,-0.29205388099671586,0.16379855332142146,-0.07945337491393273
12.619753360748291,0.014351077581542023,0.010549285793459495,0.03235997115224072,-0.3261574946173161,0.25106882987830886,-0.16265379317640918,-0.033365154477665734,0.05352830854967193,0.00012100303127044951,0.3050668803028566,-0.2365859318855293,-0.1698300173029255
12.652023792266846,-0.009945022139011318,-0.011245638265179936,-0.015765478906039514,-0.3220979312932829,0.2344851051336154,0.08701578002590232,-0.005522319510059083,0.06555927824005994,0.04304655129382019,0.32828113776732987,-0.20713179716375435,0.0785664084131718
12.683710813522339,-0.012644809856629996,-0.025967813579296166,-0.0638259893267186,0.2681684466724653,-0.15455977601810325,0.08732694955438179,0.05056869972088743,0.030166901858297117,0.07368453312222766,-0.36590368713351423,0.004076621875611419,0.028351357006045477
12.719911575317383,-0.00533665710129275,-0.014790354156348556,-0.009377109728364537,-0.25697247779112375,-0.22572553191481065,0.0870900814430895,0.0578021556312117,0.01511829960495502,0.07831870001414862,0.272445430278112,-0.19498811986181844,0.09927475411204191
12.755738496780396,-0.0145286132786088,0.0034849578893150924,-0.02898160671250633,-0.46004326466418344,0.3876348858099066,-0.057910586340409465,0.11804811192348552,0.05055652404785476,0.09080657696139252,0.43270818012593104,-0.18037786088899216,0.057029913398960644
12.792595148086548,-0.02982384777820266,0.03856967149298849,0.039720238951163944,-0.17102835881292988,0.14025262139769973,-0.03973465513151417,0.11879946396648024,0.01082680590994868,0.0013196276294586001,0.18843291245782218,-0.12485466094690095,-0.04383819722415434
12.829119682312012,-0.01732843834640076,0.02564206885815668,-0.013332921745920462,0.15212816317212013,-0.003416857392695233,0.21171877469482722,0.0870062302078427,0.03022265261949117,0.0537404674265251,-0.12027802011375616,0.03403826015269032,0.2272466164827367
12.865946054458618,-0.013392295718783889,0.05808316243160059,0.0891635764635519,-0.2463555347106925,-0.05321538382720659,-0.12202670336614355,0.07210919596697468,-0.011923622442986878,-0.02271575617689956,0.2493322987654948,-0.20537299557472735,-0.14882421841646898
12.901576042175293,-0.03056623993103107,0.01413656291733649,-6.329217416292665e-06,-0.22325322809528578,-0.028567798737076308,-0.04760827171798042,0.07212327215802823,0.023004676522706845,0.04768997085381305,0.2205007494524597,-0.1213322883177977,-0.05718958763659092
12.938263654708862,-0.027688373299833303,0.016094588489856183,-0.0027202548483382196,0.12456060158837043,0.020579490568910327,-0.180319197473442,0.06083854481129069,0.019456832129770004,0.008354357934421276,-0.14880933748198613,0.08797784193118947,-0.17797899596565303
12.977081060409546,-0.015559919814537325,0.015997135129387382,0.015374418216691796,-0.04353603900525255,-0.015136089244913685,0.013163892646271491,0.037848900585248146,0.018298508597918036,0.011131302319899734,0.05028770699806295,-0.07417002906898722,0.009783171543886415
13.011547088623047,-0.07813360280577361,0.04531344771199872,-0.05163176684902435,-0.2508987104797561,-0.050312079649135914,0.0657164013996896,0.03221466561680112,0.027523385661682994,0.054651703482125426,0.2615463848905649,-0.18757771701856218,0.12335333797276549
13.043240785598755,-0.1874986180637205,-0.053946871265928314,0.036494028086660045,0.39586998577483434,0.13320293291232868,-0.0578450919861572,0.0265292884264471,0.01629995446984013,-0.0007944152170270141,-0.1733134013012394,0.10533911648526728,-0.22984608735348266
13.0775887966156,-0.11530212923363545,-0.11365831900527283,-0.040897415080332226,0.6129010490701653,-0.32836173926215795,-0.19486572176006,-0.01637803211895236,0.07655418425897512,0.08366606704177652,-0.6788428127929002,0.430398515932885,-0.13892698812190457
13.115495204925537,-0.11872979924670528,-0.1957238300142613,0.0638261175682297,-1.707262433495854,-0.6369505716040771,-0.5442715334695127,0.004898167326818293,0.15242248755505144,0.1845538686456264,1.6263397203353485,-1.0781766546670475,-0.5627269389306573
13.152941703796387,-0.16231805151179624,-0.13132735766150722,-0.03703075304146798,-0.2262460881749,0.4636843044150003,-0.033771437958623696,0.07954932533514925,0.10662210622272977,0.04659773732532593,0.13968054709316458,-0.02262935564147206,-0.03011723040060632
13.192771196365356,-0.13408651245495057,-0.09322375672971005,0.03131525902683187,0.3102475077428607,0.047846613183358866,-0.056946537336708486,0.07129874248133145,0.07543901630199346,-0.045953177027660566,-0.31737473675854655,0.1747895955653351,-0.04446937929515902
13.23448657989502,-0.08900761542248783,-0.09653239512084719,0.00810195410766321,0.18889171615773773,0.05125551801426103,0.009788267183621122,0.039563234714536204,0.08975312064503756,0.004147442039417873,-0.17741920829093055,0.08305740905619295,0.014805044002051335
13.279486656188965,-0.06291482719504705,-0.04985629534226003,0.11643623109516126,-0.323134891116554,-0.0286084369309764,-0.01763615406895596,0.10359303783770338,0.10462433221680299,-0.09173241789582182,0.34119413252325886,-0.13697783501182825,0.05245289008452571
13.320579290390015,-0.04524601189636182,-0.00856203806655794,0.12519957378970697,0.16388983881914182,-0.01579911660329395,-0.03625042931417253,0.1009805381393283,0.07616706995095213,-0.14642077748162013,-0.16051761584880947,0.07945127528856169,-0.045588451180567785
13.356215238571167,-0.027866571640776123,-0.012063112166176164,0.0908100962895875,0.05565821747120832,0.01657230491399212,0.05644099826672145,0.10817057958582084,0.04428711173871768,-0.11062002105313423,-0.07395167066070124,-0.05292169169810626,0.0022845120600863827
13.390001773834229,-0.00825867319726728,-0.013665015703696068,0.034922760043177806,-0.03937881820647819,0.10850236115909642,0.17394322429661463,0.07090907750799849,0.051182928465048155,-0.02105263471960453,0.08005659003515503,-0.06708068445991962,0.1876827962173817
13.42283320426941,0.008333609112945714,0.013527714235539267,0.07075011291483944,-0.09747415963755016,0.046737116696051295,-0.12747351204202706,0.04447874957341129,0.026436324635005472,-0.023255912147116774,0.10834064615592491,-0.043009689487459556,-0.06896786773035729
13.458546876907349,0.015319660998602045,-0.013900573721879675,-0.01670705103776668,0.12530224403968934,-0.02143499840966369,0.022698027722839603,0.023133771937331987,0.05179785342664536,0.045214661457578985,-0.11780462984640981,0.0649610356570261,0.008734408288534418
13.4913489818573,0.017254623205822526,0.000988571806025242,0.02896787819468842,-0.3180137628265134,-0.08719183173074463,0.04216278541759057,0.011701813688157854,0.03287703118307416,0.039307548161837395,0.3292827515094264,-0.2606002342157731,0.02821079648731774
13.524991750717163,-0.003268258700184268,-0.025950584920409685,-0.037183334027254794,-0.26721697607655415,-0.03619033800222677,-0.07210390768646259,0.023298061909768894,0.05493632878896389,0.08627020659053608,0.2510205103301329,-0.14994506228715138,-0.07767757058127725
