Samriddhi-dubey06/Mujoco_bimanual_impedance_admittance_control/csv/joint_velocity_log_with_grav.csv
time,joint_1,joint_2,joint_3,joint_4,joint_5,joint_6,joint_7,joint_8,joint_9,joint_10,joint_11,joint_12
7.152557373046875e-07,0.0,0.0,0.0,0.0,0.0,0.0,0.0,0.0,0.0,0.0,0.0,0.0
0.01901984214782715,0.0,0.0,0.0,0.0,0.0,0.0,0.0021784806922308083,5.9773703128596e-05,-0.0002652551826410808,-0.0009863177298786757,-0.00031523466261114744,6.435869224715926e-06
0.044550180435180664,0.015178260904248,0.040096774211598005,0.0706347084726002,0.06795310117148282,-0.015194407388910562,-0.05907327754587485,0.017376333447581053,-0.009432142465662792,-0.06824951847015467,-0.0774540213742361,0.021173825697731977,-0.027477217320911088
0.07710576057434082,0.02944578085083694,0.06945935554756741,0.12028635424080308,0.06259383848109693,-0.008453968230032562,-0.043569385358046164,0.00628808707422825,-0.02664165712418711,-0.1064503391692863,-0.048959772703547455,-0.003071028663720294,-0.0391143830978295
0.10952115058898926,0.03267676681840565,0.06933471322854569,0.10343210426459502,-0.26498184856856455,0.22639077785476291,0.1320564654940444,0.041896748443614504,-0.04945697910997806,-0.1019667737147249,0.29358233897127384,-0.2972860435098377,0.08275319545908266
0.14327692985534668,0.02473633283223845,0.041706410227092594,0.019313157774186268,0.1013724099367137,-0.033292691016676146,0.09499585233396196,0.07187727648021026,-0.0535714112367061,0.0014859512964812,-0.16508653578168414,-0.06037079011458399,0.061099024338380714
0.1834394931793213,-0.10834815442131093,0.1266540896842453,0.19658096551314977,0.029608914102557185,-0.3396562225379538,-0.048849609557641865,0.11267461400095274,-0.05070581764249832,0.05051381318963708,-0.1558147724952741,0.08704546949826386,0.0034382839496817086
0.2174220085144043,-0.20485111785894,0.20693131567965142,0.13508647543240726,-0.7876645952380512,-0.06969255173097227,-0.07042101416273266,0.2190514976904796,0.026704981756958554,-0.01351663489642637,0.4450940176635827,-0.149639151363372,-0.0306429328253923
0.24798870086669922,-0.27158894100736625,0.11068775640733408,-0.14014272766681424,-0.08323796226133406,-0.008904607424242018,-0.1007372600991644,0.26506781917356836,-0.024935526872703097,-0.018439346982035434,-0.15762357043213326,-0.12329794600343791,-0.08843326023968258
0.28330492973327637,-0.16921909565974913,-0.05015210729043382,-0.3908280432274102,1.004192791508871,-0.3363788654176845,-0.12965043593917683,0.249741894717878,0.07212248450619904,0.34609382922442333,-1.1723958419015807,0.25026235569546035,-0.17272401524234632
0.32523512840270996,-0.11877393404487468,-0.20043437508970538,-0.5469954432181112,-1.1965434307684726,0.9245497022637144,-0.05847358754809548,0.2191809602901445,0.26527311639120776,0.6455309493899777,1.3320086149212647,-0.5181616836803231,0.07104261868086678
0.3738842010498047,-0.2537466549718257,-0.16201856332527076,-0.21850708516609807,-0.43301821284863495,0.421585158515963,-0.1824636165332032,0.26633212258852,0.22436197348427658,0.4416589236200891,0.5906726764989555,-0.29069608990351326,-0.05968498981700551
0.399350643157959,-0.3452599892365076,-0.24018107172157754,-0.03836184917655547,0.46420649119038393,-0.05622309491930255,-0.13086058577555199,0.34630705772334114,0.03816655681773373,0.15005408021372996,-0.5080175298459496,-0.012232328581223806,-0.03356524098116462
0.4264078140258789,-0.26123971715573835,-0.19379921885294368,0.06345867357150357,0.0801288196449984,-0.14897226476917586,0.10644572933520269,0.2615504283289297,-0.007099547948006435,0.07650981772983627,-0.09699268125840577,0.10435787321330137,0.03417027925870217
0.46750593185424805,-0.27236559119921017,-0.26597976046145055,0.062404284752985,-2.659411196030661,1.520107895861496,-1.0375887104129453,0.26649777019136145,0.11111759664596702,0.2674050339456569,2.542337436494978,-1.3535034808515243,-0.8448387523919829
0.5025770664215088,-0.3300948722979173,-0.2359358495127432,-0.022832257803725484,0.5316900596065861,-0.5084848687877259,0.3369013703898738,0.32374706747279247,0.05413223353288719,0.049894986146659076,-0.5101717565067414,0.4533436824140955,0.25844870616083737
0.5249981880187988,-0.23076026295763555,-0.2040387523383151,-0.041318409041852466,0.7112837088564232,-0.3325548608283536,0.17628688596552974,0.22702240031167206,0.06521774345801064,0.048400458037803865,-0.6935604011982219,0.34179462957999823,0.15276924993081503
0.5570516586303711,-0.16018329084105373,-0.11974142170620206,0.10986233587597591,-0.5097715737667117,0.3917317203769649,-0.11657290380474802,0.162418451412808,0.018975184048134343,-0.018994428628815258,0.4990174110522594,-0.42553098710923914,-0.14569047088248654
0.590667724609375,-0.12659417717530141,-0.10904355851032875,0.07500153816781542,0.24177253191053738,-0.14680692716697774,-0.0771416589662034,0.12839023248553924,0.02026842315393957,-0.028924523410762924,-0.23937579433507716,0.17779732487306826,-0.07125934244435103
0.6357119083404541,-0.06300697199341211,-0.05612773851805842,0.13147369270048143,0.26164433225148465,-0.12732318009369684,-0.026708106804860084,0.06771260894238967,-0.006545992791551693,-0.08329306038856564,-0.2530398388932617,0.10799399736999624,-0.027866790306594898
0.6787655353546143,-0.035186179787960896,-0.05390872600697681,0.08543533251932015,-0.4010335752099393,0.33284734750064215,0.09688507963054344,0.03502285824426121,0.015329943901416985,0.0016296792533493643,0.42215845659012124,-0.3022613419684239,0.08699429081784138
0.7166919708251953,-0.023319356770133443,-0.05604493482926953,0.048978789164776514,0.14207720656347644,-0.08988133651527519,-0.14905446633115507,0.023708504460713254,0.02284280570118094,-0.001582914239658045,-0.14884893672059057,0.11267653025531837,-0.14153451554412752
0.7474439144134521,0.006786786313099549,-0.06408231523351288,-0.01295968927442434,0.18309941946155012,-0.06107435793478505,0.08749193959122217,-0.009407257898470873,0.046196925708692146,0.05485754095667861,-0.17475847418761528,0.082152117462958,0.08947652759495772
0.7857091426849365,0.017968241401682558,-0.026720089553567902,0.06378226582513133,-0.4009632784953729,0.2783066147792545,-0.16277181449628883,-0.01683463983311122,0.023395937628269064,0.008708446006965874,0.38143748381768317,-0.2989034505453416,-0.17238656522281842
0.8230249881744385,0.01576685200221786,-0.0052163281261497114,0.05376910863627762,0.14131707439931268,-0.09290870066788048,0.08941984369889319,-0.01536401454243918,0.0020612156406643566,-0.02104464465946368,-0.12547117039175293,0.07638356626643678,0.0948841100605084
0.8615994453430176,0.036095420756006275,0.02389376550033639,0.09369796528732682,0.16421854661843077,-0.07629378130504541,-0.0946827087016732,-0.033089178092754065,-0.017866041080950912,-0.06432549365847987,-0.1644902736693522,0.0647520022972417,-0.09481309598801496
0.8993220329284668,0.03105190629872135,0.0038640458853671615,0.03388548777667723,-0.380806383491422,0.3119767984212566,0.06702464292757482,-0.03317324874342811,0.012436909876484572,0.024994857231790277,0.39212937367770595,-0.27622374837664315,0.059606492839712616
0.9430665969848633,0.020161173407901745,-0.018336425132209264,-0.018061891281568564,0.134617905587135,-0.0817066136650147,-0.11234557050713234,-0.022637052678400563,0.03045130183521728,0.04102324851715827,-0.1445296037839514,0.10763381642823805,-0.10385000556626586
0.9818847179412842,0.03299181762422201,-0.03205239548087091,-0.06342235280747607,0.1679875955523436,-0.0595915653846951,0.07673153321496692,-0.03721530065200043,0.05066818560706414,0.08455640985017554,-0.16749637369778042,0.07196643462439832,0.07823431059047448
1.0246593952178955,0.03187152974700719,0.0013906353423559503,0.027696769259473633,-0.3974041574802985,0.2700025085496563,-0.16154805128440808,-0.031471622560187956,0.02458878502740351,0.026652698414460357,0.37273639895633776,-0.29674505842705573,-0.17131600095107127
1.0675649642944336,0.021485568913335758,0.01902811564733186,0.030338708457565377,0.13881862315293586,-0.0946545708036251,0.08271779133747531,-0.021148956187427067,0.001432977734233322,-0.011480086930039268,-0.1269060878090016,0.07543389743427853,0.08824173871057253
1.1071491241455078,0.03610663865610332,0.04408725056537041,0.07867755836451482,0.16157966424421213,-0.07658418668820247,-0.09694203124660364,-0.032834806976540086,-0.01920499319512056,-0.05965571436608464,-0.16387298426891703,0.06396724684264767,-0.09706045853161507
1.142336368560791,0.02755453876787078,0.02026098877723441,0.024687006065221173,-0.3803253985395054,0.31027092150592894,0.06579487018657953,-0.02921458516395682,0.010915978661285432,0.02655560314971974,0.3906752692916483,-0.2750334961699928,0.05839444591166329
1.1749415397644043,0.014785156823841206,-0.005291840027071455,-0.023543582918231033,0.13441336207104604,-0.08220502281851444,-0.11085889704145804,-0.016756875574982146,0.029073459556748785,0.04128336401490794,-0.14450603118842076,0.10775403771362696,-0.10233542166710852
1.2137925624847412,0.02681704502666181,-0.021612503313956567,-0.06584944901545414,0.1671872481340784,-0.05975681925480543,0.07676204689901533,-0.03051380368135915,0.04924111931224487,0.08361450266324522,-0.16676350610918708,0.07162749033178396,0.07829557645273383
1.2453258037567139,0.025604668169968713,0.00957314068186214,0.02701696466559607,-0.3976124241115925,0.2697172768037193,-0.1611215428624762,-0.024736157676028027,0.023224600034922317,0.025171626043308595,0.3729914049295461,-0.2966632339924786,-0.17101469501182137
1.2762887477874756,0.015583357901560289,0.025114406613556732,0.030306621414482166,0.13851624012554842,-0.09465977427074906,0.08281394805239523,-0.014875476040995733,0.0004102055554782713,-0.012663457078160557,-0.12650858983726143,0.07555381431639102,0.08841525972878872
1.3066706657409668,0.030825931539638064,0.0484869095213957,0.0789992636879199,0.1613090788304161,-0.0765900829956116,-0.0974167599750497,-0.027277201967470924,-0.019946012217677344,-0.06058736520107463,-0.16355908787079776,0.06404381465513487,-0.09749777662699019
1.3393194675445557,0.023026888780967356,0.02331632370413896,0.02506864120250131,-0.3804128531955382,0.31019174579118347,0.06572282154230266,-0.0244930147659264,0.010399785771122334,0.025895474112399966,0.3908807165025183,-0.27495443531795366,0.05822806519698276
1.3757309913635254,0.011060934515255682,-0.0030589988165229537,-0.02266380258854337,0.1341921622950386,-0.08231080016370601,-0.11187861484331968,-0.012881667759113655,0.028534393637486007,0.040403243882259764,-0.1442430800112081,0.10766180345879234,-0.10328558447020328
1.4088521003723145,0.02382035891442983,-0.020195340788950248,-0.06520792625018587,0.16712484901771824,-0.05971433300034454,0.07711503236752826,-0.02743174204123721,0.04887458114036286,0.08309522460485255,-0.16654471862086007,0.07164750967187059,0.07867778851320692
1.4409270286560059,0.023266049732232053,0.010358380103817278,0.02741459443673494,-0.3976667238777512,0.2697701811311276,-0.16102160025891135,-0.022365161879873596,0.023002678411891055,0.02492063346442152,0.373100943132449,-0.2966087168756626,-0.17101217811352698
1.4742100238800049,0.013814355270385395,0.025409122422994763,0.03041374613653079,0.13844400575222854,-0.09458258338082404,0.08310895770523682,-0.013111979342156143,0.0003435377089384753,-0.012571980770703893,-0.12641419613967986,0.07558485326168424,0.08876162961718398
1.5090770721435547,0.029533766974551363,0.048499767412020306,0.07904604432026259,0.16124613590734874,-0.07658409636616109,-0.09754040737375311,-0.026008302290925663,-0.019962693394912006,-0.060426252004950866,-0.1635254863620159,0.06404744955359501,-0.09758817928372429
1.5472686290740967,0.02212786370552754,0.023158407826298875,0.025071024828139582,-0.38041969791616437,0.31017924344298003,0.06580009801746037,-0.023620658595205898,0.010395023091416655,0.026054969770977925,0.39090733793960886,-0.27497924811257357,0.05820506906146508
1.577829122543335,0.010473517005438103,-0.0032534886991082562,-0.022504336131497722,0.1341389426908769,-0.08233112431034101,-0.11219797367935197,-0.012313063991867471,0.02848077347852461,0.04042477365872718,-0.1441752304837176,0.10760325321357028,-0.10355687094680177
1.6111254692077637,0.023460412239945737,-0.020446896505154986,-0.06508242927912651,0.1671293477171432,-0.059700788360096554,0.07719465370080186,-0.027086556339746423,0.04883646624620187,0.08314044438140292,-0.1665160973124134,0.07164750852864518,0.0787900385376554
1.6458790302276611,0.02307096231538897,0.010067941209965015,0.027488621891127413,-0.39765771122314175,0.26980331745383646,-0.1609950148048104,-0.02218896852775668,0.022979421428300527,0.024961278125718293,0.3730848922451175,-0.2965825721360318,-0.17107938998580052
1.6795523166656494,0.013736887668738084,0.025110118428512636,0.030465350874459934,0.13842185556351116,-0.09454501719176772,0.08315803359197979,-0.013050550327503652,0.00033999476249315513,-0.012496635077591814,-0.12642094671528614,0.0755984620023678,0.08885163107668609
1.71340012550354,0.02953116873328697,0.048219396372211926,0.07910527383681175,0.16124038091219536,-0.07656979378320965,-0.09759117758062705,-0.026021780407566135,-0.019961915814306962,-0.060363996164574586,-0.16353613849362103,0.06405392430547957,-0.09760465583973693
1.7461183071136475,0.022178478805133187,0.022905488847662206,0.025114548125159855,-0.38038805232784556,0.31017833215786833,0.06589192470665758,-0.023680531063660686,0.010389233417980159,0.026085617232479284,0.3909098459179091,-0.2749984266403035,0.05819867856621433
1.7788417339324951,0.010550053283823201,-0.003485787752620928,-0.022480647955171004,0.13416223600245747,-0.08232405419279137,-0.1121460495085829,-0.012396654469941596,0.028487982616580594,0.04048885661094363,-0.1441390051088567,0.10758646767575641,-0.10346476414350561
1.809889316558838,0.023550797662447116,-0.020639341353045387,-0.06503903953485186,0.16713744080140447,-0.05970279293689476,0.0771730349388057,-0.027173551249273502,0.04883986890687027,0.08318603751756022,-0.1665068712952668,0.07163774473301107,0.07880327132440282
1.8473970890045166,0.023161096415628597,0.009900337273660319,0.027514964683665363,-0.39764505273981987,0.26982308665730614,-0.16098272292098398,-0.022279258280898266,0.022979085727653066,0.02497472399884853,0.37305711415418935,-0.2965645241700976,-0.17116136144766414
1.8793268203735352,0.013822784845963129,0.024981146051312512,0.030530538199164986,0.1384003833286387,-0.09452974522381474,0.08308907235337143,-0.013132984360670487,0.00033258656700210776,-0.012504409359253552,-0.12644106027224544,0.0756123208985488,0.08882069307275337
1.9100806713104248,0.029603238426400252,0.04811252727807834,0.07916653679470717,0.16123705690633772,-0.07655498685827408,-0.09762391325740732,-0.026095084408245144,-0.0199629196747504,-0.06036656042069178,-0.16354315238331446,0.06406515803017719,-0.09760194931986216
1.941807746887207,0.022243300506483536,0.022817171957547327,0.025148402716935324,-0.38035886241102734,0.31017787085787585,0.06598804771177227,-0.023743665338189862,0.010385031514191217,0.02606993566141067,0.390919445006693,-0.27501508327493207,0.05819730519415792
1.975022792816162,0.0106022299489126,-0.00356871227653344,-0.022478189196131274,0.13418788842884743,-0.08232268306289875,-0.1120867780219548,-0.012448483909885882,0.028499959147098946,0.04052431048834465,-0.14410272841884625,0.10757498889365696,-0.10336492020792284
2.005906343460083,0.023594837514217003,-0.020698815557827963,-0.06502195793592663,0.16714085007233068,-0.05970823586905927,0.07715365518173828,-0.02720954256662024,0.04884894991581504,0.08321471814735468,-0.16649306635381794,0.07162808932309385,0.07881903125950343
2.036546230316162,0.02319433539965061,0.009849041017758034,0.027512915873348642,-0.39763899091948207,0.26984043700011756,-0.1609661825534247,-0.02231010824695697,0.022984046013476575,0.02497916826295655,0.3730343542059184,-0.29654747410911353,-0.17123948382910623
2.067305564880371,0.013849290306334167,0.024953734899994362,0.030572329426280055,0.13837543118029894,-0.09452069576242272,0.08300708459318792,-0.013154764405595437,0.00032796008233584514,-0.01252108642463523,-0.12646099570936653,0.0756277287231713,0.08877643551487688
2.0998358726501465,0.0296184086301515,0.04809075140489579,0.07920345236411844,0.16122913593764218,-0.07654218317241833,-0.09765456421544111,-0.026111532007146214,-0.01996082364489523,-0.06037185819203489,-0.16354730365797066,0.0640769786797406,-0.09759695376356764
2.1289374828338623,0.022256683778567564,0.022799302861052306,0.025158923582992154,-0.3803346071739666,0.3101758255861323,0.06608453318770002,-0.023756150596430645,0.010383657302252235,0.02605504772890964,0.3909322374307458,-0.27503189363634745,0.058196408440789715
2.1670851707458496,0.010610496834579673,-0.0035892040189906306,-0.022484993578332425,0.13420843407659755,-0.08232604227920393,-0.11205088781565409,-0.012456973598479951,0.028509674300658237,0.04055098332788797,-0.14406510021570518,0.10756218740255258,-0.1032877873466968
2.2089648246765137,0.023602090688886863,-0.020707883978372692,-0.06501537047158232,0.16714235126516627,-0.059714455414217146,0.07714203739262582,-0.027209904519920128,0.04885626630398569,0.0832390574228762,-0.16647717055741637,0.07161914091017749,0.0788424914426562
2.257026433944702,0.02319779581846879,0.009837742549956046,0.027500212219366202,-0.39763537323064735,0.2698574846809137,-0.16094679376221852,-0.022312518270691077,0.022987779847866405,0.024982385356957133,0.373013707738973,-0.2965303252453376,-0.17131487266700435
2.2913529872894287,0.013852403293068378,0.024957199908002894,0.03060257027515889,0.13834937106881817,-0.09451244156781813,0.08292932360166222,-0.013154590422723092,0.00032296597006804817,-0.012535635223119436,-0.12648023382044066,0.0756436271571877,0.08873649756492547
2.3332483768463135,0.029615848555221976,0.04809299199214885,0.07923034160278883,0.1612196955434586,-0.07653034514045268,-0.09768596331896187,-0.02611154069155807,-0.019959068724956643,-0.06037443943243903,-0.1635510432710816,0.06408871249226414,-0.09759273553717304
2.3707287311553955,0.02225707126685583,0.022799995078415465,0.025161120946864672,-0.38031168556106587,0.3101729901436395,0.0661804180558723,-0.023756747438596133,0.010381802219173428,0.026042827643487004,0.39094531160047774,-0.2750487849739489,0.058194930373323045
2.4059414863586426,0.010609759272780421,-0.0035941247740889117,-0.02249500924582582,0.13422735976224098,-0.08233066913310905,-0.11202196337806475,-0.012457190080015303,0.02851745203506357,0.040576704656225836,-0.14402720947665937,0.10754872772493118,-0.10321744627068458
2.4380571842193604,0.023603254811868524,-0.020705167825391554,-0.06501163946618269,0.1671435409529069,-0.05972090541454492,0.07713246756201744,-0.027204840196748153,0.04886186384920525,0.08326305010760993,-0.1664610566522975,0.07161037862067285,0.07886797242397678
2.467728853225708,0.023197413634074487,0.009835126783721757,0.027485018306545636,-0.3976320920753212,0.26987443559686586,-0.16092653562998896,-0.022311629312841624,0.02299010329308641,0.024985723478254875,0.37299333831907977,-0.29651315209095075,-0.1713894124246874
2.5018227100372314,0.01385331815606935,0.02496672297144771,0.030630106890100504,0.13832317688443346,-0.09450418776398217,0.08285333243664028,-0.013152682456874537,0.000317045468689027,-0.012549186516703892,-0.12649937054664118,0.07565954897811428,0.08869835673148443
2.539290189743042,0.029612283218475872,0.048099504486294506,0.07925511178401426,0.16121007604358115,-0.07651872429438783,-0.09771761731368458,-0.026110880487038714,-0.01995808958317047,-0.060376096644025025,-0.163554852395154,0.06410037014531815,-0.0975887909510802
2.575404405593872,0.02225726252876273,0.02280362844406893,0.025161721101668935,-0.3802888983842403,0.3101699598158377,0.06627589538092221,-0.00027547623109957717,-0.0024588764448317604,-0.03812284071418989,0.44754415022491245,-0.2580486623203521,0.03202152306796496
2.608135223388672,0.010609357625986077,-0.00359691804326329,-0.022505749801127774,0.13424610223260958,-0.08233549295413528,-0.11199401504493844,0.00951602554669138,0.0228652600967305,-0.007170994307283778,-0.14855627480019773,0.10790615478067289,-0.09537876714973331
2.6402745246887207,0.028195003478270968,0.023515218871516155,0.04732591016507134,0.15096085089619962,-0.20330349335954895,-0.08941719338678117,-0.009888820471393518,-0.003112266057315679,-0.03964388203982486,-0.1590817960949597,0.1647753830920901,0.011744985065197916
2.6710641384124756,0.025276872421132746,0.046773940596021295,0.09641744657664572,-0.38898660185667444,0.3083593300433333,-0.09420412726046143,-0.009026675107488965,-0.012931394770166412,-0.06097525185033686,0.377859406463439,-0.31761459460955715,-0.13164940141195997
2.7055912017822266,-0.06323734438810401,0.10111068790715433,0.026213110099139222,-0.29498218835980056,0.03699903725479142,0.01903465985971503,0.011452206062520868,-0.017322948349791787,-0.04494081265584422,0.2886091886727701,-0.2017456057362651,0.09115082128806765
2.7385523319244385,-0.057794109693848995,0.0798601681078086,-0.05234719443304617,0.27227290532302467,-0.10592721306741912,0.16051959774814303,0.009975404243430285,0.0008827279848284339,0.006700657811611693,-0.2561477034683848,0.16043462195657138,0.13680085036707013
2.768923044204712,-0.016057108532526884,0.012493467840241787,-0.12077646883035005,0.5387150123264763,-0.25997843437465906,-0.36036769226524545,-0.02429128911113268,0.0670274679644024,0.08751011821184003,-0.5797397784367464,0.3608224037504978,-0.3561339318094698
2.8009676933288574,0.0067854470686508905,-0.010248042987278144,-0.11215614786861199,-0.435290802510107,0.34959097626735425,0.03656701454409389,-0.042599867032669714,0.0956071399118699,0.156772130343926,0.41825178117674267,-0.33078098978718606,0.024062012095087515
2.833214521408081,-0.008606086746281225,0.024533163179043752,-0.011276801732895109,-0.35579108767490736,0.19336030948891955,-0.06378435744088304,-0.015243188031898974,0.0476872270159237,0.05032597387257279,0.33490472351068357,-0.24266124310048928,-0.07459087448041701
2.869154691696167,-0.004518728554834006,0.04639205620700737,0.0362961996102905,0.2565480501969652,-0.17230596508536447,-0.05316324732736584,-0.010224803351574295,0.013908609003985835,-0.0352128651285496,-0.26218351768320347,0.15087913295703706,-0.05054198591766354
2.899803638458252,0.0021187393490270405,0.04176699058183375,0.06522872832757892,-0.31165375967262693,0.2461702665182731,-0.1489640825437194,-0.012214327964948035,0.019580173712044267,-0.027131762429773824,0.2988162569540779,-0.22316771914680525,-0.15222060153592576
2.933371067047119,-0.019829705628648466,0.009204630044865943,-0.002842457490882036,-0.2994284410188986,0.22423534608735665,0.08905292698510844,0.10000644899297556,-0.02510723562817271,0.002797359394525689,0.2065468889385897,-0.4086594626101666,-0.032875210142673875
2.9683938026428223,-0.019707853696980592,-0.01289936084770513,-0.06270152635033979,0.26207728891774645,-0.14633985004678227,0.08631882517148098,0.08291190778937668,-0.007588071057321549,0.06285891726237833,-0.2343689282635978,0.21156777909283997,0.12352786498837996
3.0011587142944336,-0.32975357626625695,0.0839690956199177,0.3946634396503603,0.09011414552784403,0.2924369768034919,-0.09175452988759553,0.05496306107280537,-0.03398625736198954,0.04338765773023302,0.49897716704500883,-0.19374948141004356,-0.09873174295913435
3.0311384201049805,-0.28779155407857626,0.03560677549062632,0.2755621017507326,-0.34663793234784596,0.21897923507306585,0.09739181999164043,0.07077123677793917,-0.019104857101626568,0.05803253167556341,0.2739654193650145,-0.1904360992957362,0.1002545672151229
3.063821792602539,-0.21344157585899293,0.06942806007551383,0.5392966977314015,0.6067741020648654,-0.5325316296188821,-2.020352219184563,1.199203999970561,0.5747399192496422,-0.3052822533709135,-1.9568093764132295,1.179919596639956,-1.0202574507646451
3.099402666091919,-1.618165367785988,0.6876204294024595,0.731089840957913,1.72904513641385,0.5843030060511362,-0.8154370594155855,0.9249124877196506,0.5236312081596549,-0.2036446490934894,0.6355336948444184,-0.4750328734989431,0.05024925738080421
3.129002094268799,-1.1512124703803057,0.5948317020368116,0.75557017046436,-4.5155412277353015,3.5851504972259884,2.375859150742399,0.6125622977417171,0.7163712899119272,0.4104315114994051,4.452185434936011,-3.6652393013009275,2.3550532456763142
3.1603169441223145,-0.8571185714236245,0.18456455644994252,0.7872710832336751,7.5555131979517345,-5.792671468516932,-7.585711126152062,0.4644833398883868,0.67854811887163,-0.6496836598931399,-8.463064843304263,6.175809870203368,-7.766271847684228
3.1899354457855225,-0.3207433477354087,0.16375713504376554,0.7332801837700407,-0.3296395495467923,0.6371147606660639,1.9966066452746842,2.904594952529576,-1.2003707393239802,-5.573758074309923,3.4767798777203343,-2.6815850517835003,-2.5886643620058587
3.2257614135742188,-3.636972519136777,0.09033588168461021,2.0778115636733325,2.784014988704139,4.2984932481934255,0.9067728832946933,2.549988829765311,-0.7358609304361825,-3.8222423916854305,2.6259374616407776,-0.8740870442413962,1.566615131163017
3.2608513832092285,-6.7726027308415855,-2.6862268974722903,4.910587307277716,3.269165238134356,-1.016812042315264,-0.0860336247813639,1.859879549709261,-0.601198017166665,-0.8011275689020421,3.6481136608923466,9.394507731039567,6.6205736027455835
3.2941646575927734,-10.017388343461096,-7.263766894510338,6.109904582721865,6.381977265693196,13.671870524882765,-9.33024085564544,1.7635237725686685,0.7033545652352945,-1.3560892605381818,-0.49077035011256154,-1.3994310661821583,-16.651973632315535
3.330712080001831,-8.84552151836474,-8.079798050947394,6.590166716747422,-23.077106068171688,7.185046848086868,-11.105974676861942,7.468330989071371,5.043777431907585,3.9779738001060494,22.42414129715921,-0.6201045496379739,-15.923691051840722
3.3625402450561523,-9.898041495286416,-10.604802422320704,2.4016366670682503,-41.28302509191049,3.8544973842467463,-9.195855446967983,8.977593978693921,7.627238424315808,6.241794652835578,38.025676683647674,-25.179975107134954,-6.130365839287114
3.3969345092773438,-8.915492118362586,-8.557695787651362,0.9514979411584576,-14.650539041996119,9.082988032051041,15.942302418872416,8.341750004176493,7.394851253114822,5.700232284147085,13.081010999791765,-15.06011441782651,18.889571339462627
3.425602674484253,-7.981655109026346,-7.158890420414195,0.3868454422928742,12.410866727484343,-5.889522498239346,0.12235643978314847,7.673062102093458,5.316114571545716,2.535942435810173,-13.00295511346555,9.163658713062043,-0.2165757659490808
3.4596803188323975,-5.876040075860946,-5.935253948057695,0.7840305140441441,7.860104353127682,-6.747297540552628,-0.08132532097886794,5.769158800239874,4.056316286999788,1.0501094352609077,-7.79938653373526,4.318371970754926,-0.2377842310732031
3.492494583129883,-4.2039971840273935,-4.82038512625601,1.497484258082631,0.017811497345299188,-7.993041387142805,-0.7619954325370102,4.26337818785079,2.9965073165979836,0.10916077793654677,0.12087078899796388,-0.48544413358826777,-0.933495648653481
3.5261921882629395,-2.983838654511281,-3.7945685588301115,1.4388701769286167,1.35119969907438,-7.215629892437221,0.026627347831512216,3.1520684731398987,2.1157928313366283,-0.713258318650205,-1.2485259837830291,1.0885041294788778,0.016498596735558424
3.5610761642456055,-1.9275842645552435,-2.7442660465662345,1.0118617271617023,0.4589556118815564,4.064876524387875,-0.10355799753686826,2.1747508469841446,1.490003824176739,-1.1219560786835185,-0.5066295625148164,0.4621592410206409,-0.12635391307156496
3.5948901176452637,-1.1762658555830359,-2.1667680328454964,0.983271255859268,0.3906407578951636,1.9981233035543258,-0.06779082067552766,2.1272509095539727,0.9596032392337216,-1.2310864434353517,-0.11652863891566173,0.5009932851341531,0.04381355696500411
3.621750593185425,-0.5746264632358307,-1.7620048680534373,0.6772100843217848,1.943710135908625,-0.3397060274670247,0.4229123281820487,1.649911316136106,0.35792019669087827,-1.0720970880116876,-1.9022107365359133,0.3427374779655036,0.3356810453760571
3.6578874588012695,-0.03936923218897148,-1.3507447728854685,1.0241461145300539,-3.3608556138847057,-1.333262014034937,-0.5344997284642098,1.832763645895035,0.6275101355722201,0.03684261610792605,3.0356051771602752,-0.2404922850173714,0.369020441068405
3.6914010047912598,0.0480389478332021,-1.0012611167538288,0.6746213925400575,-1.1834029124756555,-0.7001171807502075,-1.1384533376644357,1.9565194880902774,-0.18946437391075643,-1.581187700461518,2.898072775179132,0.005210278818927105,0.05594551438926659
3.7236218452453613,0.24787512212931073,-0.7217166139378852,0.7308352975750918,-3.0151015661802214,-0.9942429820274964,1.3358321322139668,1.4466140156897451,0.08182893652703233,-0.7973046592953653,3.008302528818103,-2.77123859516776,1.2897643377968997
3.7532737255096436,0.17881511524011892,-0.570017410625548,0.2887659120722105,-0.4326539155428555,-1.112754526632817,-1.5104025564191783,1.154058122940251,-0.07329652639112616,-0.17248942707673076,-0.5527547694916302,3.367873305885424,0.3580240464394159
3.782923936843872,0.16996215138606943,-0.39217426379116516,0.11644983820782304,1.1413293791127657,-0.7012477430996067,0.2113474207949826,0.8147010460389357,-0.01571487794644852,-0.2266448350725941,-0.9032289634271827,-0.21683513018006062,-0.5913717074025651
3.817225217819214,0.20508093493974855,-0.2824840135607616,-0.04497292266705097,0.14813543772777504,1.2337861884825567,-0.016456216021388054,0.5257743015686851,0.02881118319671719,0.0458454400342152,-0.0792260767392784,-0.5109973786889906,-0.34838535001898485
3.844755172729492,0.2040504930283374,-0.19516347536514558,-0.03089371402204966,0.4775291577819297,0.1656014852489751,0.3848808006216923,0.3124131533567516,-0.007076798538792416,0.1122342747509426,-0.3728427907684994,0.05646852512981748,0.26458240607672423
3.8656857013702393,0.21804539571406037,-0.15122645961501627,-0.08404493998694729,0.47398646071832623,-0.04573066187370389,0.060129031104043995,0.1309302620316713,0.0023302097064857343,0.18679444722101668,-0.4508054625238458,0.14841309162228655,0.006827813845049879
3.8958518505096436,0.2047268607178683,-0.0801123050574444,0.027031118993059253,-0.4951994024345712,-0.2297262557637405,-0.005664459470775179,0.022874413775736846,-0.02412750556694824,0.17812771926533053,0.5211453352615075,-0.4371915091580829,-0.03238854094679975
3.9275052547454834,0.14971085511659232,-0.014212187698168469,0.044688111458174196,-0.2937250207275364,-0.15135188425948426,-0.011650647486285942,-0.011962487779562166,-0.059226196849459095,0.11038182151388261,0.30137260580717795,-0.20854270504597405,-0.030307985076233626
3.9654040336608887,0.11358036528090273,0.016282241260596356,0.030763994796865934,0.1076493046813437,-0.03406976372999278,-0.19717012959918043,-0.04023717122712072,-0.06094561160714723,0.05948152132177019,-0.12823284228376913,0.08346951037523881,-0.19916224998122767
3.9948933124542236,0.09158799083304822,0.03716190870895465,0.0345919607253783,-0.06450663555678549,-0.06892532173718052,0.10726742636381817,-0.06744544155845922,-0.06651229349419495,0.044669501291850724,0.08599991406472263,-0.11223258473127018,0.10146513886046749
4.02711296081543,0.06521100354016231,0.04820554037474341,0.017821433218810093,-0.10505121994056119,-0.05465261012907861,0.0742830572981274,-0.07272903566441942,-0.0673976212778404,0.040093109645734704,0.11462093792626467,-0.10827533301852373,0.072842949767246
4.0596537590026855,0.05187173679213742,0.05892565329869956,0.024918910092249537,0.15365037716322802,0.02496028855212512,-0.23596646004676797,-0.07405780933708273,-0.06223570499032406,-0.0011492358748261614,-0.16897541966942553,0.10374436785789289,-0.24229087144026742
4.090325117111206,0.04686013905863503,0.07010648526726936,0.049373537140725524,-0.05667050368693913,-0.027305477842458237,0.08603979534842437,-0.07999664380299118,-0.06571584483892311,-0.014394815793422973,0.08457850820661927,-0.10781685762357528,0.07708312405296294
4.121076345443726,0.030806313541355473,0.06614475186887961,0.030254664375929777,-0.15343189815327649,-0.03147597555947908,0.08385128962522498,-0.06903857434407132,-0.05851698115568,0.0026063916110408234,0.16424684961870117,-0.13359103394053973,0.08328579833108457
4.154832363128662,0.02312206144971615,0.06636777082728468,0.032422799368620345,0.10730963935376805,0.028930358155509782,-0.2332702527907542,0.17021839379264136,-0.374924481928169,-0.4457962141356193,0.19693901740629738,-0.21277595644638567,0.00724026829653153
4.188960075378418,0.030636280526269058,0.08854218765502843,0.07792855569306403,0.13510921483946992,-0.02920101038231017,0.02144675539724361,0.28808291282210774,-0.5511420953743287,-0.4725917862917631,-0.1427560865080072,-0.295964621681522,-0.020696856638577867
4.224416494369507,0.047810616662703344,0.05326993771817791,0.09166255906238141,-0.8739092378105937,-0.28236336153782987,-0.8211365756925606,0.38819254415469234,-0.7564875935307208,-0.08028830158107542,0.28398337133741547,-0.0054485044303823615,-0.11268248780593544
4.256847143173218,0.01014998996980139,0.06385329601559278,0.08300095212593828,-0.6563253459683673,-0.20210709629526044,-0.47994841001902877,0.3829813818938575,-0.7069892128136519,-0.08090910757253822,0.8109527939364753,0.10578600265451786,-0.22351359084190198
4.383322715759277,-0.013062599930067607,0.06534910364665647,0.08695077324513263,-0.7031446866233404,-0.1253107182657034,-0.7512134638929506,0.40405824554339226,-0.6052817733055916,-0.29589031058011045,1.1560026019455252,0.1089002683679186,-0.3971891643107577
4.418447017669678,-0.0479462020894574,0.06383216205575414,-0.002101588757106587,0.11670263666990977,-0.017180183208452965,0.35044830479354894,0.37421464496184664,-0.4699810522642505,-0.16348679002704425,-0.19498243356870826,0.20078692069183762,0.31064405450012067
4.452738523483276,-0.03581641754399549,0.0688438079250635,0.04930215748060664,0.2284003180957758,-0.4616624915813792,0.08034365238202812,0.28895790830609236,-0.4022250444122924,-0.050478286603692885,-0.36107004039863116,0.5510349150413839,0.2884169533132137
4.48340106010437,-0.02251334175628347,0.06433882742339515,-0.0027328736292922817,0.02940155400645264,0.29885445752654405,0.0857301117901585,0.20784413256956116,-0.2826780398363522,0.043745895252035163,-0.010147539531207728,-0.2991002590084465,-0.09703965542700282
4.5157630443573,-0.024181302953211668,0.0651239136015734,0.01664266602016092,-0.29468048036163597,0.3615590393926924,0.0981022742222693,0.15952180445557812,-0.21801033198446512,0.10904731083160736,0.32115995409259374,-0.378712774556674,0.017123681982114516
4.545967102050781,-0.023126576403525622,0.05164232020277508,-0.016598518969412997,0.3145640627013142,-0.17249001085541993,0.1285384299119846,0.11421553363162804,-0.17553633659262297,0.11855508333785975,-0.2877703036373869,0.1132120896580055,0.0908085030136572
4.579695701599121,0.005818906139208255,0.07133110088812947,0.030837184548524802,0.14102079688805522,-0.04512304994577196,-0.028947293400730822,0.057906881456885835,-0.1575392254538514,0.07906909289210351,-0.11600403095531603,-0.01708495135436197,-0.063794542069809
4.61497950553894,0.005969539340526354,0.04947576086421564,-0.0043786889043134734,-0.4212432209256285,0.3502359339186617,0.03618439684437247,0.03399534236205275,-0.10345418554212447,0.139982465706183,0.3932306931481406,-0.2965049265841898,0.050664741890156795
4.64494252204895,-0.00020027069929565502,0.057635546947776485,0.028436641574698145,0.1815539994838592,-0.1401278421958727,-0.13681395788685424,0.024298626722863093,-0.10182561074647707,0.05567361862170349,-0.16673437441413413,0.09126576883953785,-0.16249465195582813
4.685866832733154,0.01529174077828535,0.019792512079604738,-0.038196826528719294,0.1657151160565976,-0.1452102743697177,0.042952610358599735,-0.007650599477445591,-0.0523385405805315,0.10179816619729386,-0.1863873120526881,0.08273076431377319,0.05867904908747365
4.718847274780273,0.01522891890169605,0.0076720169000088975,-0.05627999896843582,-0.4261456748530834,0.35933971366019446,0.037040112808501745,-0.016035941032309542,-0.018115504871555103,0.1399778511144865,0.39418091720761106,-0.2987613655402947,0.05042751816004983
4.747356176376343,-0.006327914656448377,0.0019476150989679282,-0.051493460173749644,0.05953881492971014,-0.09039032115798035,-0.0052787330376668495,0.13343374161839927,-0.22891835384375323,0.012944343661734276,-0.14314864699518515,-0.334361077153843,0.033837172300921065
4.7782371044158936,0.006299926775660377,-0.012568818531564378,-0.08755075062341522,0.19539394730483667,-0.08438930940791667,0.05669095105602807,0.18599735433348408,-0.3471162815921487,0.12415635798341818,-0.3986139922218311,-0.25873909438542636,0.015257651487354876
4.811262369155884,0.027588366276355178,0.01563665568019355,0.06787593042829823,-0.8508167809982647,-0.2252492260171685,-0.7234675046081462,0.23508704222470064,-0.4457421370725126,-0.10603328102462306,1.1352157674770444,0.021446097850374102,-0.202492004554369
4.841578722000122,-0.007217160351615508,0.013616196744182588,-0.03702193253929259,-0.5512670320452902,0.46425846661596376,-0.22617672168716252,0.23402619876209432,-0.3290730584370847,0.0024189652659428185,0.4947150823727702,-0.18569223949414979,-0.20875583306936027
4.874392747879028,-0.03044735111720752,0.03063574508849182,0.05509940292226588,-0.39617986062137417,-0.1663314721999642,-0.22442827706944063,0.46270442387953553,-0.44022270973303623,0.3770337798136818,-0.3346975099394618,-0.2417660612159641,-0.14393029127132623
4.910815477371216,-0.03902005449704559,0.047364578368042726,0.009694248124119023,0.4742651266633802,-0.15713774692112104,0.2602124820590238,0.5893479682955186,-0.511185446827942,0.6321470757552119,-0.8626541808293492,-0.2574537545808281,-0.060249269065174096
4.946472406387329,0.01582169758934858,0.04058400516821366,0.1364623705397331,-1.2749026184759722,-0.3314804072337982,-0.4702248711076882,0.41495779360861407,-0.4074333642261645,0.7000752522049607,1.4384175033164528,-1.142417382497507,-0.3762794691547671
4.982972145080566,-0.014064972415967162,0.045103844284552434,-0.04818983936091195,-0.9941069936543231,1.3837800520114538,-0.07627138758663238,0.35524661481344777,-0.304987408378606,0.6790772695846244,1.025493138346706,-0.7706113125809866,-0.04451401130710886
